;FLAVOR:Marlin
;TIME:478
;Filament used: 0.165648m
;Layer height: 0.3
;MINX:52.734
;MINY:15.373
;MINZ:0.4
;MAXX:108.373
;MAXY:17.503
;MAXZ:25.6
;Generated with Cura_SteamEngine 4.4.1
M140 S90
M105
M190 S90
M104 S230
M105
M109 S230
M82 ;absolute extrusion mode
G28 ;Home
G1 Z15.0 F6000 ;Move the platform down 15mm
;Prime the extruder
G92 E0
G1 F200 E3
G92 E0
G92 E0
G92 E0
G1 F1500 E-6.5
;LAYER_COUNT:85
;LAYER:0
M107
;MESH:404.stl
G0 F3000 X52.734 Y16.588 Z0.4
;TYPE:WALL-OUTER
G1 F1500 E0
G1 F1725.5 X52.734 Y16.288 E0.02495
G1 X108.373 Y16.288 E4.65135
G1 X108.373 Y16.588 E4.67629
G1 X52.734 Y16.588 E7.45213
G0 F3000 X52.734 Y16.388
;MESH:NONMESH
G0 F600 X52.734 Y16.388 Z0.7
G0 F3000 X52.834 Y16.388
G0 X63.58 Y16.488
G0 X63.58 Y16.588
;TIME_ELAPSED:7.056493
;LAYER:1
M140 S90
M106 S255
;TYPE:WALL-OUTER
;MESH:404.stl
G1 F600 X63.58 Y16.288 E7.47084
G1 X66.15 Y16.288 E7.63111
G1 X66.15 Y16.588 E7.64982
G1 X63.58 Y16.588 E7.74599
G0 F4500 X63.58 Y16.388
G1 F1500 E1.24599
G0 F4500 X63.68 Y16.388
G0 X66.13 Y16.517
G0 X67.065 Y16.517
G0 X77.594 Y16.517
G0 X78.529 Y16.517
G0 X83.504 Y16.517
G0 X83.605 Y16.588
G1 F1500 E7.74599
G1 F600 X78.509 Y16.588 E8.06379
G1 X78.509 Y16.288 E8.0825
G1 X83.604 Y16.288 E8.27313
G1 X83.605 Y16.572 E8.29084
G1 X83.605 Y16.588 E8.29184
G0 F4500 X83.405 Y16.588
G1 F1500 E1.79184
G0 F4500 X83.405 Y16.488
G0 X84.519 Y16.572
G0 X101.512 Y16.572
G0 X102.447 Y16.572
G0 X102.427 Y16.588
G1 F1500 E8.29184
G1 F600 X102.427 Y16.288 E8.31054
G1 X104.997 Y16.288 E8.47082
G1 X104.997 Y16.588 E8.48952
G1 X102.427 Y16.588 E8.58569
G0 F4500 X102.427 Y16.388
G1 F1500 E2.08569
;MESH:NONMESH
G0 F600 X102.427 Y16.388 Z1
G0 F4500 X102.527 Y16.388
G0 X101.512 Y16.518
G0 X84.507 Y17.491
G0 X77.606 Y17.491
G0 X67.065 Y16.518
G0 X66.13 Y16.518
G0 X63.68 Y16.518
G0 X63.58 Y16.588
;TIME_ELAPSED:11.279117
;LAYER:2
;TYPE:WALL-OUTER
;MESH:404.stl
G1 F1500 E8.58569
G1 F600 X63.58 Y16.288 E8.6044
G1 X66.15 Y16.288 E8.76467
G1 X66.15 Y16.588 E8.78338
G1 X63.58 Y16.588 E8.87954
G0 F6000 X63.58 Y16.388
G1 F1500 E2.37954
G0 F6000 X63.68 Y16.388
G0 X66.13 Y16.366
G0 X67.065 Y16.366
G0 X76.922 Y16.366
G0 X77.857 Y16.366
G0 X84.126 Y16.366
G0 X84.226 Y16.299
G1 F1500 E8.87954
G1 F600 X84.227 Y16.572 E8.89657
G1 X84.227 Y16.588 E8.89756
G1 X84.022 Y16.588 E8.90362
G1 X77.837 Y16.588 E9.28933
G1 X77.837 Y16.288 E9.30804
G1 X84.022 Y16.288 E9.53947
G1 X84.226 Y16.299 E9.54696
G0 F6000 X84.226 Y16.499
G1 F1500 E3.04696
G0 F6000 X84.126 Y16.488
G0 X85.141 Y16.57
G0 X101.512 Y16.572
G0 X102.447 Y16.572
G0 X102.427 Y16.588
G1 F1500 E9.54696
G1 F600 X102.427 Y16.288 E9.56567
G1 X104.997 Y16.288 E9.72594
G1 X104.997 Y16.588 E9.74465
G1 X102.427 Y16.588 E9.84082
G0 F6000 X102.427 Y16.388
G1 F1500 E3.34082
;MESH:NONMESH
G0 F600 X102.427 Y16.388 Z1.3
G0 F6000 X102.527 Y16.388
G0 X101.512 Y16.518
G0 X85.131 Y17.491
G0 X76.934 Y17.491
G0 X67.065 Y16.518
G0 X66.13 Y16.518
G0 X63.68 Y16.518
G0 X63.58 Y16.588
;TIME_ELAPSED:15.779267
;LAYER:3
;TYPE:WALL-OUTER
;MESH:404.stl
G1 F1500 E9.84082
G1 F600 X63.58 Y16.288 E9.85952
G1 X66.15 Y16.288 E10.0198
G1 X66.15 Y16.588 E10.03851
G1 X63.58 Y16.588 E10.13467
G0 F6000 X63.58 Y16.388
G1 F1500 E3.63467
G0 F6000 X63.68 Y16.388
G0 X66.13 Y16.517
G0 X67.065 Y16.517
G0 X76.442 Y16.482
G0 X77.357 Y16.48
G0 X84.635 Y16.517
G0 X84.736 Y16.588
G1 F1500 E10.13467
G1 F600 X77.357 Y16.588 E10.59484
G1 X77.356 Y16.288 E10.61355
G1 X84.735 Y16.288 E10.88968
G1 X84.736 Y16.572 E10.90739
G1 X84.736 Y16.588 E10.90839
G0 F6000 X84.536 Y16.588
G1 F1500 E4.40839
G0 F6000 X84.536 Y16.488
G0 X85.65 Y16.57
G0 X101.512 Y16.572
G0 X102.447 Y16.572
G0 X102.427 Y16.588
G1 F1500 E10.90839
G1 F600 X102.427 Y16.288 E10.9271
G1 X104.997 Y16.288 E11.08737
G1 X104.997 Y16.588 E11.10608
G1 X102.427 Y16.588 E11.20224
G0 F6000 X102.427 Y16.388
G1 F1500 E4.70224
;MESH:NONMESH
G0 F600 X102.427 Y16.388 Z1.6
G0 F6000 X102.527 Y16.388
G0 X101.512 Y16.518
G0 X85.64 Y17.491
G0 X76.455 Y17.491
G0 X67.065 Y16.518
G0 X66.13 Y16.518
G0 X63.68 Y16.518
G0 X63.58 Y16.588
;TIME_ELAPSED:20.478227
;LAYER:4
;TYPE:WALL-OUTER
;MESH:404.stl
G1 F1500 E11.20224
G1 F600 X63.58 Y16.288 E11.22095
G1 X66.15 Y16.288 E11.38123
G1 X66.15 Y16.588 E11.39993
G1 X63.58 Y16.588 E11.4961
G0 F6000 X63.58 Y16.388
G1 F1500 E4.9961
G0 F6000 X63.68 Y16.388
G0 X66.13 Y16.488
G0 X67.065 Y16.488
G0 X76.043 Y16.452
G0 X76.958 Y16.45
G0 X76.958 Y16.588
G1 F1500 E11.4961
G1 F600 X76.957 Y16.305 E11.51375
G1 X76.957 Y16.288 E11.51481
G1 X85.207 Y16.288 E12.0293
G1 X85.207 Y16.588 E12.04801
G1 X76.958 Y16.588 E12.35665
G0 F6000 X76.958 Y16.388
G1 F1500 E5.85665
G0 F6000 X77.058 Y16.389
G0 X85.187 Y16.518
G0 X86.122 Y16.516
G0 X101.512 Y16.518
G0 X102.447 Y16.518
G0 X102.427 Y16.588
G1 F1500 E12.35665
G1 F600 X102.427 Y16.288 E12.37536
G1 X104.997 Y16.288 E12.53563
G1 X104.997 Y16.588 E12.55434
G1 X102.427 Y16.588 E12.65051
G0 F6000 X102.427 Y16.388
G1 F1500 E6.15051
;MESH:NONMESH
G0 F600 X102.427 Y16.388 Z1.9
G0 F6000 X102.527 Y16.388
G0 X101.512 Y16.518
G0 X86.112 Y17.491
G0 X76.056 Y17.491
G0 X67.065 Y16.518
G0 X66.13 Y16.518
G0 X63.68 Y16.518
G0 X63.58 Y16.588
;TIME_ELAPSED:25.352913
;LAYER:5
;TYPE:WALL-OUTER
;MESH:404.stl
G1 F1500 E12.65051
G1 F600 X63.58 Y16.288 E12.66922
G1 X66.15 Y16.288 E12.82949
G1 X66.15 Y16.588 E12.8482
G1 X63.58 Y16.588 E12.94436
G0 F6000 X63.58 Y16.388
G1 F1500 E6.44436
G0 F6000 X63.68 Y16.388
G0 X66.13 Y16.488
G0 X67.065 Y16.488
G0 X75.688 Y16.453
G0 X76.603 Y16.451
G0 X76.603 Y16.588
G1 F1500 E12.94436
G1 F600 X76.602 Y16.305 E12.96201
G1 X76.602 Y16.288 E12.96307
G1 X85.561 Y16.288 E13.52178
G1 X85.562 Y16.588 E13.54049
G1 X76.603 Y16.588 E13.87574
G0 F6000 X76.603 Y16.388
G1 F1500 E7.37574
G0 F6000 X76.703 Y16.389
G0 X85.548 Y16.574
G0 X86.476 Y16.574
G0 X101.512 Y16.574
G0 X102.447 Y16.574
G0 X102.427 Y16.588
G1 F1500 E13.87574
G1 F600 X102.427 Y16.288 E13.89444
G1 X104.997 Y16.288 E14.05472
G1 X104.997 Y16.588 E14.07343
G1 X102.427 Y16.588 E14.16959
G0 F6000 X102.427 Y16.388
G1 F1500 E7.66959
;MESH:NONMESH
G0 F600 X102.427 Y16.388 Z2.2
G0 F6000 X102.527 Y16.388
G0 X101.512 Y16.518
G0 X86.464 Y17.491
G0 X75.701 Y17.491
G0 X67.065 Y16.518
G0 X66.13 Y16.518
G0 X63.68 Y16.518
G0 X63.58 Y16.588
;TIME_ELAPSED:30.367111
;LAYER:6
;TYPE:WALL-OUTER
;MESH:404.stl
G1 F1500 E14.16959
G1 F600 X63.58 Y16.288 E14.1883
G1 X66.15 Y16.288 E14.34857
G1 X66.15 Y16.588 E14.36728
G1 X63.58 Y16.588 E14.46344
G0 F6000 X63.58 Y16.388
G1 F1500 E7.96344
G0 F6000 X63.68 Y16.388
G0 X66.13 Y16.488
G0 X67.065 Y16.488
G0 X75.357 Y16.455
G0 X76.272 Y16.453
G0 X76.272 Y16.588
G1 F1500 E14.46344
G1 F600 X76.271 Y16.305 E14.48109
G1 X76.271 Y16.288 E14.48215
G1 X85.859 Y16.288 E15.08009
G1 X85.86 Y16.588 E15.09879
G1 X76.272 Y16.588 E15.45758
G0 F6000 X76.272 Y16.388
G1 F1500 E8.95758
G0 F6000 X76.372 Y16.389
G0 X85.846 Y16.574
G0 X86.774 Y16.572
G0 X101.512 Y16.574
G0 X102.447 Y16.574
G0 X102.427 Y16.588
G1 F1500 E15.45758
G1 F600 X102.427 Y16.288 E15.47629
G1 X104.997 Y16.288 E15.63656
G1 X104.997 Y16.588 E15.65527
G1 X102.427 Y16.588 E15.75143
G0 F6000 X102.427 Y16.388
G1 F1500 E9.25143
;MESH:NONMESH
G0 F600 X102.427 Y16.388 Z2.5
G0 F6000 X102.527 Y16.388
G0 X101.512 Y16.518
G0 X86.764 Y17.491
G0 X75.37 Y17.491
G0 X67.065 Y16.518
G0 X66.13 Y16.518
G0 X63.68 Y16.518
G0 X63.58 Y16.588
;TIME_ELAPSED:35.507058
;LAYER:7
;TYPE:WALL-OUTER
;MESH:404.stl
G1 F1500 E15.75143
G1 F600 X63.58 Y16.288 E15.77014
G1 X66.15 Y16.288 E15.93041
G1 X66.15 Y16.588 E15.94912
G1 X63.58 Y16.588 E16.04529
G0 F6000 X63.58 Y16.388
G1 F1500 E9.54529
G0 F6000 X63.68 Y16.388
G0 X66.13 Y16.518
G0 X67.065 Y16.518
G0 X75.044 Y16.518
G0 X75.979 Y16.518
G0 X75.959 Y16.588
G1 F1500 E16.04529
G1 F600 X75.959 Y16.288 E16.064
G1 X86.144 Y16.288 E16.69916
G1 X86.144 Y16.588 E16.71787
G1 X75.959 Y16.588 E17.09897
G0 F6000 X75.959 Y16.388
G1 F1500 E10.59897
G0 F6000 X76.059 Y16.388
G0 X86.124 Y16.518
G0 X87.059 Y16.516
G0 X101.512 Y16.518
G0 X102.447 Y16.518
G0 X102.427 Y16.588
G1 F1500 E17.09897
G1 F600 X102.427 Y16.288 E17.11768
G1 X104.997 Y16.288 E17.27795
G1 X104.997 Y16.588 E17.29666
G1 X102.427 Y16.588 E17.39282
G0 F6000 X102.427 Y16.388
G1 F1500 E10.89282
;MESH:NONMESH
G0 F600 X102.427 Y16.388 Z2.8
G0 F6000 X102.527 Y16.388
G0 X101.512 Y16.518
G0 X87.049 Y17.491
G0 X75.056 Y17.491
G0 X67.065 Y16.518
G0 X66.13 Y16.518
G0 X63.68 Y16.518
G0 X63.58 Y16.588
;TIME_ELAPSED:40.766776
;LAYER:8
;TYPE:WALL-OUTER
;MESH:404.stl
G1 F1500 E17.39282
G1 F600 X63.58 Y16.288 E17.41153
G1 X66.15 Y16.288 E17.5718
G1 X66.15 Y16.588 E17.59051
G1 X63.58 Y16.588 E17.68667
G0 F6000 X63.58 Y16.388
G1 F1500 E11.18667
G0 F6000 X63.68 Y16.388
G0 X66.13 Y16.488
G0 X67.065 Y16.488
G0 X74.738 Y16.488
G0 X75.673 Y16.488
G0 X76.762 Y16.488
G0 X76.762 Y16.588
G1 F1500 E17.68667
G1 F600 X75.653 Y16.588 E17.75583
G1 X75.653 Y16.299 E17.77386
G1 X76.762 Y16.288 E17.81459
G1 X80.476 Y16.288 E18.04621
G1 X80.477 Y16.588 E18.06492
G1 X76.762 Y16.588 E18.20394
G0 F6000 X76.562 Y16.588
G1 F1500 E11.70394
G0 F6000 X76.562 Y16.488
G0 X80.476 Y16.492
G0 X81.655 Y16.489
G0 X81.655 Y16.588
G1 F1500 E18.20394
G1 F600 X81.654 Y16.288 E18.22265
G1 X86.412 Y16.288 E18.51937
G1 X86.412 Y16.588 E18.53808
G1 X81.655 Y16.588 E18.71606
G0 F6000 X81.655 Y16.388
G1 F1500 E12.21606
G0 F6000 X81.755 Y16.389
G0 X86.392 Y16.518
G0 X87.327 Y16.516
G0 X101.512 Y16.518
G0 X102.447 Y16.518
G0 X102.427 Y16.588
G1 F1500 E18.71606
G1 F600 X102.427 Y16.288 E18.73477
G1 X104.997 Y16.288 E18.89504
G1 X104.997 Y16.588 E18.91375
G1 X102.427 Y16.588 E19.00991
G0 F6000 X102.427 Y16.388
G1 F1500 E12.50991
;MESH:NONMESH
G0 F600 X102.427 Y16.388 Z3.1
G0 F6000 X102.527 Y16.388
G0 X101.512 Y16.518
G0 X87.317 Y17.491
G0 X74.75 Y17.491
G0 X67.065 Y16.518
G0 X66.13 Y16.518
G0 X63.68 Y16.518
G0 X63.58 Y16.588
;TIME_ELAPSED:46.355369
;LAYER:9
;TYPE:WALL-OUTER
;MESH:404.stl
G1 F1500 E19.00991
G1 F600 X63.58 Y16.288 E19.02862
G1 X66.15 Y16.288 E19.1889
G1 X66.15 Y16.588 E19.2076
G1 X63.58 Y16.588 E19.30377
G0 F6000 X63.58 Y16.388
G1 F1500 E12.80377
G0 F6000 X63.68 Y16.388
G0 X66.13 Y16.488
G0 X67.065 Y16.488
G0 X74.572 Y16.459
G0 X75.487 Y16.457
G0 X75.487 Y16.588
G1 F1500 E19.30377
G1 F600 X75.486 Y16.288 E19.32248
G1 X79.214 Y16.288 E19.55496
G1 X79.214 Y16.588 E19.57367
G1 X75.487 Y16.588 E19.71312
G0 F6000 X75.487 Y16.388
G1 F1500 E13.21312
G0 F6000 X75.587 Y16.389
G0 X79.194 Y16.518
G0 X80.129 Y16.518
G0 X81.998 Y16.518
G0 X82.933 Y16.518
G0 X82.913 Y16.588
G1 F1500 E19.71312
G1 F600 X82.913 Y16.288 E19.73183
G1 X86.659 Y16.288 E19.96544
G1 X86.66 Y16.588 E19.98415
G1 X82.913 Y16.588 E20.12436
G0 F6000 X82.913 Y16.388
G1 F1500 E13.62436
G0 F6000 X83.013 Y16.388
G0 X86.646 Y16.574
G0 X87.574 Y16.572
G0 X101.512 Y16.574
G0 X102.447 Y16.574
G0 X102.427 Y16.588
G1 F1500 E20.12436
G1 F600 X102.427 Y16.288 E20.14307
G1 X104.997 Y16.288 E20.30334
G1 X104.997 Y16.588 E20.32205
G1 X102.427 Y16.588 E20.41822
G0 F6000 X102.427 Y16.388
G1 F1500 E13.91822
;MESH:NONMESH
G0 F600 X102.427 Y16.388 Z3.4
G0 F6000 X102.527 Y16.388
G0 X101.512 Y16.518
G0 X87.564 Y17.491
G0 X74.585 Y17.491
G0 X67.065 Y16.518
G0 X66.13 Y16.518
G0 X63.68 Y16.518
G0 X63.58 Y16.588
;TIME_ELAPSED:51.515728
;LAYER:10
;TYPE:WALL-OUTER
;MESH:404.stl
G1 F1500 E20.41822
G1 F600 X63.58 Y16.288 E20.43692
G1 X66.15 Y16.288 E20.5972
G1 X66.15 Y16.588 E20.61591
G1 X63.58 Y16.588 E20.71207
G0 F6000 X63.58 Y16.388
G1 F1500 E14.21207
G0 F6000 X63.68 Y16.388
G0 X66.13 Y16.488
G0 X67.065 Y16.488
G0 X74.413 Y16.46
G0 X75.328 Y16.458
G0 X75.328 Y16.588
G1 F1500 E20.71207
G1 F600 X75.327 Y16.288 E20.73078
G1 X78.636 Y16.288 E20.93714
G1 X78.636 Y16.588 E20.95584
G1 X75.328 Y16.588 E21.07961
G0 F6000 X75.328 Y16.388
G1 F1500 E14.57961
G0 F6000 X75.428 Y16.389
G0 X78.616 Y16.388
G0 X79.551 Y16.388
G0 X82.575 Y16.388
G0 X83.51 Y16.388
G0 X83.49 Y16.288
G1 F1500 E21.07961
G1 F600 X86.878 Y16.288 E21.29089
G1 X86.878 Y16.588 E21.3096
G1 X83.49 Y16.588 E21.43637
G1 X83.49 Y16.288 E21.45508
G0 F6000 X83.69 Y16.288
G1 F1500 E14.95508
G0 F6000 X83.69 Y16.388
G0 X86.858 Y16.518
G0 X87.793 Y16.516
G0 X101.512 Y16.518
G0 X102.447 Y16.518
G0 X102.427 Y16.588
G1 F1500 E21.45508
G1 F600 X102.427 Y16.288 E21.47379
G1 X104.997 Y16.288 E21.63406
G1 X104.997 Y16.588 E21.65277
G1 X102.427 Y16.588 E21.74894
G0 F6000 X102.427 Y16.388
G1 F1500 E15.24894
;MESH:NONMESH
G0 F600 X102.427 Y16.388 Z3.7
G0 F6000 X102.527 Y16.388
G0 X101.512 Y16.518
G0 X87.783 Y17.491
G0 X74.426 Y17.491
G0 X67.065 Y16.518
G0 X66.13 Y16.518
G0 X63.68 Y16.518
G0 X63.58 Y16.588
;TIME_ELAPSED:56.526440
;LAYER:11
;TYPE:WALL-OUTER
;MESH:404.stl
G1 F1500 E21.74894
G1 F600 X63.58 Y16.288 E21.76765
G1 X66.15 Y16.288 E21.92792
G1 X66.15 Y16.588 E21.94663
G1 X63.58 Y16.588 E22.04279
G0 F6000 X63.58 Y16.388
G1 F1500 E15.54279
G0 F6000 X63.68 Y16.388
G0 X66.13 Y16.488
G0 X67.065 Y16.488
G0 X74.255 Y16.454
G0 X75.17 Y16.452
G0 X75.17 Y16.588
G1 F1500 E22.04279
G1 F600 X75.169 Y16.338 E22.05838
G1 X75.169 Y16.288 E22.0615
G1 X78.251 Y16.288 E22.2537
G1 X78.251 Y16.588 E22.27241
G1 X75.17 Y16.588 E22.38768
G0 F6000 X75.17 Y16.388
G1 F1500 E15.88768
G0 F6000 X75.27 Y16.389
G0 X78.231 Y16.518
G0 X79.166 Y16.518
G0 X82.96 Y16.518
G0 X83.895 Y16.518
G0 X83.875 Y16.588
G1 F1500 E22.38768
G1 F600 X83.875 Y16.288 E22.40639
G1 X87.073 Y16.288 E22.60583
G1 X87.073 Y16.588 E22.62453
G1 X83.875 Y16.588 E22.7442
G0 F6000 X83.875 Y16.388
G1 F1500 E16.2442
G0 F6000 X83.975 Y16.388
G0 X87.053 Y16.518
G0 X87.988 Y16.516
G0 X101.512 Y16.518
G0 X102.447 Y16.518
G0 X102.427 Y16.588
G1 F1500 E22.7442
G1 F600 X102.427 Y16.288 E22.76291
G1 X104.997 Y16.288 E22.92318
G1 X104.997 Y16.588 E22.94189
G1 X102.427 Y16.588 E23.03805
G0 F6000 X102.427 Y16.388
G1 F1500 E16.53805
;MESH:NONMESH
G0 F600 X102.427 Y16.388 Z4
G0 F6000 X102.527 Y16.388
G0 X101.512 Y16.518
G0 X87.978 Y17.491
G0 X74.268 Y17.491
G0 X67.065 Y16.518
G0 X66.13 Y16.518
G0 X63.68 Y16.518
G0 X63.58 Y16.588
;TIME_ELAPSED:61.450506
;LAYER:12
;TYPE:WALL-OUTER
;MESH:404.stl
G1 F1500 E23.03805
G1 F600 X63.58 Y16.288 E23.05676
G1 X66.15 Y16.288 E23.21703
G1 X66.15 Y16.588 E23.23574
G1 X63.58 Y16.588 E23.3319
G0 F6000 X63.58 Y16.388
G1 F1500 E16.8319
G0 F6000 X63.68 Y16.388
G0 X66.13 Y16.488
G0 X67.065 Y16.488
G0 X74.096 Y16.518
G0 X75.031 Y16.519
G0 X77.84 Y16.488
G0 X77.94 Y16.572
G1 F1500 E23.3319
G1 F600 X77.94 Y16.588 E23.3329
G1 X75.011 Y16.588 E23.51556
G1 X75.012 Y16.288 E23.53427
G1 X77.941 Y16.288 E23.64389
G1 X77.94 Y16.572 E23.6616
G0 F6000 X77.94 Y16.588
G0 X77.756 Y16.588
G1 F1500 E17.1616
G0 F6000 X77.756 Y16.488
G0 X78.856 Y16.495
G0 X83.272 Y16.494
G0 X84.207 Y16.494
G0 X84.187 Y16.588
G1 F1500 E23.6616
G1 F600 X84.187 Y16.288 E23.68031
G1 X87.246 Y16.288 E23.87108
G1 X87.246 Y16.588 E23.88979
G1 X84.187 Y16.588 E24.00425
G0 F6000 X84.187 Y16.388
G1 F1500 E17.50425
G0 F6000 X84.287 Y16.388
G0 X87.226 Y16.518
G0 X88.161 Y16.516
G0 X101.512 Y16.518
G0 X102.447 Y16.518
G0 X102.427 Y16.588
G1 F1500 E24.00425
G1 F600 X102.427 Y16.288 E24.02296
G1 X104.997 Y16.288 E24.18323
G1 X104.997 Y16.588 E24.20194
G1 X102.427 Y16.588 E24.2981
G0 F6000 X102.427 Y16.388
G1 F1500 E17.7981
;MESH:NONMESH
G0 F600 X102.427 Y16.388 Z4.3
G0 F6000 X102.527 Y16.388
G0 X101.512 Y16.518
G0 X88.151 Y17.491
G0 X74.107 Y17.491
G0 X67.065 Y16.518
G0 X66.13 Y16.518
G0 X63.68 Y16.518
G0 X63.58 Y16.588
;TIME_ELAPSED:66.318674
;LAYER:13
;TYPE:WALL-OUTER
;MESH:404.stl
G1 F1500 E24.2981
G1 F600 X63.58 Y16.288 E24.31681
G1 X66.15 Y16.288 E24.47708
G1 X66.15 Y16.588 E24.49579
G1 X63.58 Y16.588 E24.59196
G0 F6000 X63.58 Y16.388
G1 F1500 E18.09196
G0 F6000 X63.68 Y16.388
G0 X66.13 Y16.518
G0 X67.065 Y16.518
G0 X73.946 Y16.518
G0 X74.881 Y16.518
G0 X74.861 Y16.588
G1 F1500 E24.59196
G1 F600 X74.861 Y16.288 E24.61066
G1 X77.667 Y16.288 E24.78565
G1 X77.667 Y16.588 E24.80436
G1 X74.861 Y16.588 E24.90936
G0 F6000 X74.861 Y16.388
G1 F1500 E18.40936
G0 F6000 X74.961 Y16.388
G0 X77.647 Y16.518
G0 X78.582 Y16.518
G0 X83.544 Y16.518
G0 X84.479 Y16.518
G0 X84.459 Y16.588
G1 F1500 E24.90936
G1 F600 X84.459 Y16.288 E24.92807
G1 X87.401 Y16.288 E25.11154
G1 X87.401 Y16.588 E25.13025
G1 X84.459 Y16.588 E25.24033
