;FLAVOR:Marlin
;TIME:6545
;Filament used: 21.4865m
;Layer height: 0.5
;MINX:49.061
;MINY:85.2
;MINZ:0.1
;MAXX:180.939
;MAXY:144.8
;MAXZ:51.1
;Generated with Cura_SteamEngine 4.4.1
M140 S90
M105
M190 S90
M104 S230
M105
M109 S230
M82 ;absolute extrusion mode
G28 ;Home
G1 Z15.0 F6000 ;Move the platform down 15mm
;Prime the extruder
G92 E0
G1 F200 E3
G92 E0
G92 E0
G92 E0
G1 F1500 E-6.5
;LAYER_COUNT:103
;LAYER:0
M107
G0 F3000 X53.516 Y86.786 Z0.1
;TYPE:SKIRT
G1 F1500 E0
G1 F2250 X54.279 Y86.337 E0.01472
G1 X55.08 Y85.959 E0.02945
G1 X55.911 Y85.655 E0.04417
G1 X56.766 Y85.427 E0.05888
G1 X57.639 Y85.277 E0.07361
G1 X58.861 Y85.2 E0.09398
G1 X171.139 Y85.2 E1.96117
G1 X172.023 Y85.24 E1.97588
G1 X172.9 Y85.36 E1.9906
G1 X173.763 Y85.558 E2.00533
G1 X174.604 Y85.833 E2.02004
G1 X175.417 Y86.183 E2.03476
G1 X176.196 Y86.605 E2.0495
G1 X176.932 Y87.096 E2.06421
G1 X177.622 Y87.651 E2.07894
G1 X178.259 Y88.266 E2.09366
G1 X178.837 Y88.936 E2.10838
G1 X179.353 Y89.655 E2.12309
G1 X179.802 Y90.418 E2.13782
G1 X180.18 Y91.219 E2.15255
G1 X180.484 Y92.05 E2.16726
G1 X180.712 Y92.905 E2.18198
G1 X180.862 Y93.778 E2.19671
G1 X180.939 Y95 E2.21707
G1 X180.939 Y135 E2.88227
G1 X180.899 Y135.884 E2.89699
G1 X180.779 Y136.761 E2.91171
G1 X180.581 Y137.624 E2.92643
G1 X180.306 Y138.465 E2.94115
G1 X179.956 Y139.278 E2.95587
G1 X179.534 Y140.057 E2.9706
G1 X179.043 Y140.793 E2.98531
G1 X178.488 Y141.483 E3.00004
G1 X177.873 Y142.12 E3.01477
G1 X177.203 Y142.698 E3.02948
G1 X176.484 Y143.214 E3.0442
G1 X175.721 Y143.663 E3.05892
G1 X174.92 Y144.041 E3.07365
G1 X174.089 Y144.345 E3.08837
G1 X173.234 Y144.573 E3.10308
G1 X172.361 Y144.723 E3.11781
G1 X171.139 Y144.8 E3.13817
G1 X58.861 Y144.8 E5.00537
G1 X57.977 Y144.76 E5.02008
G1 X57.1 Y144.64 E5.0348
G1 X56.237 Y144.442 E5.04953
G1 X55.396 Y144.167 E5.06424
G1 X54.583 Y143.817 E5.07896
G1 X53.804 Y143.395 E5.09369
G1 X53.068 Y142.904 E5.10841
G1 X52.378 Y142.349 E5.12313
G1 X51.741 Y141.734 E5.13786
G1 X51.163 Y141.064 E5.15257
G1 X50.647 Y140.345 E5.16729
G1 X50.198 Y139.582 E5.18201
G1 X49.82 Y138.781 E5.19674
G1 X49.516 Y137.95 E5.21146
G1 X49.288 Y137.095 E5.22617
G1 X49.138 Y136.222 E5.24091
G1 X49.061 Y135 E5.26127
G1 X49.061 Y95 E5.92647
G1 X49.101 Y94.116 E5.94119
G1 X49.221 Y93.239 E5.95591
G1 X49.419 Y92.376 E5.97063
G1 X49.694 Y91.535 E5.98535
G1 X50.044 Y90.722 E6.00007
G1 X50.466 Y89.943 E6.0148
G1 X50.957 Y89.207 E6.02951
G1 X51.512 Y88.517 E6.04424
G1 X52.127 Y87.88 E6.05896
G1 X52.797 Y87.302 E6.07368
G1 X53.516 Y86.786 E6.0884
G0 F3000 X53.9 Y87.016
G1 F2250 X54.657 Y86.592 E6.10283
G1 X55.45 Y86.241 E6.11725
G1 X56.271 Y85.964 E6.13166
G1 X57.115 Y85.764 E6.14608
G1 X57.973 Y85.642 E6.16049
G1 X58.861 Y85.6 E6.17528
G1 X171.139 Y85.6 E8.04247
G1 X172.005 Y85.64 E8.05689
G1 X172.864 Y85.76 E8.07131
G1 X173.708 Y85.958 E8.08573
G1 X174.53 Y86.233 E8.10014
G1 X175.323 Y86.583 E8.11456
G1 X176.081 Y87.004 E8.12898
G1 X176.796 Y87.493 E8.14338
G1 X177.464 Y88.046 E8.1578
G1 X178.078 Y88.659 E8.17223
G1 X178.633 Y89.325 E8.18665
G1 X179.123 Y90.039 E8.20105
G1 X179.547 Y90.796 E8.21548
G1 X179.898 Y91.589 E8.2299
G1 X180.175 Y92.41 E8.24431
G1 X180.375 Y93.254 E8.25873
G1 X180.497 Y94.112 E8.27315
G1 X180.539 Y95 E8.28793
G1 X180.539 Y135 E8.95313
G1 X180.499 Y135.866 E8.96755
G1 X180.379 Y136.725 E8.98197
G1 X180.181 Y137.569 E8.99639
G1 X179.906 Y138.391 E9.01081
G1 X179.556 Y139.184 E9.02522
G1 X179.135 Y139.942 E9.03964
G1 X178.646 Y140.657 E9.05404
G1 X178.093 Y141.325 E9.06847
G1 X177.48 Y141.939 E9.08289
G1 X176.814 Y142.494 E9.09731
G1 X176.1 Y142.984 E9.11171
G1 X175.343 Y143.408 E9.12614
G1 X174.55 Y143.759 E9.14056
G1 X173.729 Y144.036 E9.15497
G1 X172.885 Y144.236 E9.1694
G1 X172.027 Y144.358 E9.18381
G1 X171.139 Y144.4 E9.19859
G1 X58.861 Y144.4 E11.06578
G1 X57.995 Y144.36 E11.0802
G1 X57.136 Y144.24 E11.09463
G1 X56.292 Y144.042 E11.10904
G1 X55.47 Y143.767 E11.12346
G1 X54.677 Y143.417 E11.13787
G1 X53.919 Y142.996 E11.15229
G1 X53.204 Y142.507 E11.1667
G1 X52.536 Y141.954 E11.18112
G1 X51.922 Y141.341 E11.19555
G1 X51.367 Y140.675 E11.20996
G1 X50.877 Y139.961 E11.22437
G1 X50.453 Y139.204 E11.23879
G1 X50.102 Y138.411 E11.25322
G1 X49.825 Y137.59 E11.26763
G1 X49.625 Y136.746 E11.28205
G1 X49.503 Y135.888 E11.29646
G1 X49.461 Y135 E11.31125
G1 X49.461 Y95 E11.97645
G1 X49.501 Y94.134 E11.99087
G1 X49.621 Y93.275 E12.00529
G1 X49.819 Y92.431 E12.01971
G1 X50.094 Y91.609 E12.03412
G1 X50.444 Y90.816 E12.04854
G1 X50.865 Y90.058 E12.06296
G1 X51.354 Y89.343 E12.07736
G1 X51.907 Y88.675 E12.09178
G1 X52.52 Y88.061 E12.10621
G1 X53.186 Y87.506 E12.12063
G1 X53.9 Y87.016 E12.13503
G0 F3000 X54.283 Y87.251
G1 F2250 X55.033 Y86.855 E12.14913
G1 X55.817 Y86.53 E12.16325
G1 X56.628 Y86.281 E12.17736
G1 X57.459 Y86.11 E12.19147
G1 X58.302 Y86.017 E12.20557
G1 X58.861 Y86 E12.21487
G1 X171.139 Y86 E14.08206
G1 X171.986 Y86.04 E14.09616
G1 X172.826 Y86.16 E14.11027
G1 X173.651 Y86.358 E14.12438
G1 X174.454 Y86.633 E14.1385
G1 X175.227 Y86.982 E14.1526
G1 X175.963 Y87.402 E14.1667
G1 X176.657 Y87.89 E14.1808
G1 X177.302 Y88.441 E14.19491
G1 X177.892 Y89.051 E14.20902
G1 X178.422 Y89.713 E14.22313
G1 X178.888 Y90.422 E14.23724
G1 X179.284 Y91.172 E14.25134
G1 X179.609 Y91.956 E14.26545
G1 X179.858 Y92.767 E14.27956
G1 X180.029 Y93.598 E14.29367
G1 X180.122 Y94.441 E14.30778
G1 X180.139 Y95 E14.31708
G1 X180.139 Y135 E14.98228
G1 X180.099 Y135.847 E14.99638
G1 X179.979 Y136.687 E15.01049
G1 X179.781 Y137.512 E15.0246
G1 X179.506 Y138.315 E15.03872
G1 X179.157 Y139.088 E15.05282
G1 X178.737 Y139.824 E15.06691
G1 X178.249 Y140.518 E15.08102
G1 X177.698 Y141.163 E15.09513
G1 X177.088 Y141.753 E15.10924
G1 X176.426 Y142.283 E15.12335
G1 X175.717 Y142.749 E15.13746
G1 X174.967 Y143.145 E15.15156
G1 X174.183 Y143.47 E15.16567
G1 X173.372 Y143.719 E15.17978
G1 X172.541 Y143.89 E15.19389
G1 X171.698 Y143.983 E15.208
G1 X171.139 Y144 E15.2173
G1 X58.861 Y144 E17.08449
G1 X58.014 Y143.96 E17.09859
G1 X57.174 Y143.84 E17.1127
G1 X56.349 Y143.642 E17.12681
G1 X55.546 Y143.367 E17.14092
G1 X54.773 Y143.018 E17.15503
G1 X54.037 Y142.598 E17.16912
G1 X53.343 Y142.11 E17.18323
G1 X52.698 Y141.559 E17.19734
G1 X52.108 Y140.949 E17.21145
G1 X51.578 Y140.287 E17.22555
G1 X51.112 Y139.578 E17.23966
G1 X50.716 Y138.828 E17.25377
G1 X50.391 Y138.044 E17.26788
G1 X50.142 Y137.233 E17.28199
G1 X49.971 Y136.402 E17.2961
G1 X49.878 Y135.559 E17.3102
G1 X49.861 Y135 E17.3195
G1 X49.861 Y95 E17.98471
G1 X49.901 Y94.153 E17.99881
G1 X50.021 Y93.313 E18.01292
G1 X50.219 Y92.488 E18.02703
G1 X50.494 Y91.685 E18.04114
G1 X50.843 Y90.912 E18.05525
G1 X51.263 Y90.176 E18.06934
G1 X51.751 Y89.482 E18.08345
G1 X52.302 Y88.837 E18.09756
G1 X52.912 Y88.247 E18.11167
G1 X53.574 Y87.717 E18.12577
G1 X54.283 Y87.251 E18.13988
G0 F3000 X53.961 Y87.932
G1 F2250 X54.664 Y87.493 E18.15366
G1 X55.407 Y87.124 E18.16746
G1 X56.182 Y86.828 E18.18126
G1 X56.981 Y86.608 E18.19504
G1 X57.798 Y86.466 E18.20883
G1 X58.861 Y86.4 E18.22654
G1 X171.139 Y86.4 E20.09373
G1 X171.967 Y86.44 E20.10752
G1 X172.788 Y86.56 E20.12132
G1 X173.593 Y86.758 E20.1351
G1 X174.375 Y87.032 E20.14888
G1 X175.128 Y87.381 E20.16268
G1 X175.843 Y87.801 E20.17647
G1 X176.514 Y88.287 E20.19025
G1 X177.136 Y88.836 E20.20405
G1 X177.702 Y89.442 E20.21784
G1 X178.207 Y90.1 E20.23163
G1 X178.646 Y90.803 E20.24542
G1 X179.015 Y91.546 E20.25921
G1 X179.311 Y92.321 E20.27301
G1 X179.531 Y93.12 E20.28679
G1 X179.673 Y93.937 E20.30058
G1 X179.739 Y95 E20.31829
G1 X179.739 Y135 E20.9835
G1 X179.699 Y135.828 E20.99728
G1 X179.579 Y136.649 E21.01108
G1 X179.381 Y137.454 E21.02487
G1 X179.107 Y138.236 E21.03865
G1 X178.758 Y138.989 E21.05245
G1 X178.338 Y139.704 E21.06624
G1 X177.852 Y140.375 E21.08002
G1 X177.303 Y140.997 E21.09381
G1 X176.697 Y141.563 E21.1076
G1 X176.039 Y142.068 E21.1214
G1 X175.336 Y142.507 E21.13518
G1 X174.593 Y142.876 E21.14898
G1 X173.818 Y143.172 E21.16277
G1 X173.019 Y143.392 E21.17655
G1 X172.202 Y143.534 E21.19034
G1 X171.139 Y143.6 E21.20806
G1 X58.861 Y143.6 E23.07525
G1 X58.033 Y143.56 E23.08903
G1 X57.212 Y143.44 E23.10283
G1 X56.407 Y143.242 E23.11662
G1 X55.625 Y142.968 E23.1304
G1 X54.872 Y142.619 E23.1442
G1 X54.157 Y142.199 E23.15799
G1 X53.486 Y141.713 E23.17177
G1 X52.864 Y141.164 E23.18556
G1 X52.298 Y140.558 E23.19935
G1 X51.793 Y139.9 E23.21315
G1 X51.354 Y139.197 E23.22693
G1 X50.985 Y138.454 E23.24073
G1 X50.689 Y137.679 E23.25452
G1 X50.469 Y136.88 E23.26831
G1 X50.327 Y136.063 E23.2821
G1 X50.261 Y135 E23.29981
G1 X50.261 Y95 E23.96501
G1 X50.301 Y94.172 E23.9788
G1 X50.421 Y93.351 E23.99259
G1 X50.619 Y92.546 E24.00638
G1 X50.893 Y91.764 E24.02016
G1 X51.242 Y91.011 E24.03396
G1 X51.662 Y90.296 E24.04775
G1 X52.148 Y89.625 E24.06153
G1 X52.697 Y89.003 E24.07533
G1 X53.303 Y88.437 E24.08912
G1 X53.961 Y87.932 E24.10291
G0 F3000 X54.347 Y88.154
G1 F2250 X55.044 Y87.743 E24.11637
G1 X55.778 Y87.401 E24.12983
G1 X56.543 Y87.135 E24.1433
G1 X57.33 Y86.944 E24.15677
G1 X58.132 Y86.832 E24.17024
G1 X58.861 Y86.8 E24.18237
G1 X171.139 Y86.8 E26.04956
G1 X171.948 Y86.84 E26.06303
G1 X172.749 Y86.96 E26.0765
G1 X173.534 Y87.157 E26.08996
G1 X174.295 Y87.432 E26.10342
G1 X175.026 Y87.78 E26.11688
G1 X175.72 Y88.199 E26.13036
G1 X176.368 Y88.684 E26.14382
G1 X176.965 Y89.23 E26.15728
G1 X177.506 Y89.833 E26.17075
G1 X177.985 Y90.486 E26.18422
G1 X178.396 Y91.183 E26.19768
G1 X178.738 Y91.917 E26.21114
G1 X179.004 Y92.682 E26.22461
G1 X179.195 Y93.469 E26.23808
G1 X179.307 Y94.271 E26.25155
G1 X179.339 Y95 E26.26368
G1 X179.339 Y135 E26.92888
G1 X179.299 Y135.809 E26.94235
G1 X179.179 Y136.61 E26.95582
G1 X178.982 Y137.395 E26.96928
G1 X178.707 Y138.156 E26.98274
G1 X178.359 Y138.887 E26.9962
G1 X177.94 Y139.581 E27.00968
G1 X177.455 Y140.229 E27.02314
G1 X176.909 Y140.826 E27.0366
G1 X176.306 Y141.367 E27.05007
G1 X175.653 Y141.846 E27.06354
G1 X174.956 Y142.257 E27.07699
G1 X174.222 Y142.599 E27.09046
G1 X173.457 Y142.865 E27.10393
G1 X172.67 Y143.056 E27.1174
G1 X171.868 Y143.168 E27.13087
G1 X171.139 Y143.2 E27.143
G1 X58.861 Y143.2 E29.01019
G1 X58.052 Y143.16 E29.02366
G1 X57.251 Y143.04 E29.03713
G1 X56.466 Y142.843 E29.05059
G1 X55.705 Y142.568 E29.06405
G1 X54.974 Y142.22 E29.07751
G1 X54.28 Y141.801 E29.09099
G1 X53.632 Y141.316 E29.10445
G1 X53.035 Y140.77 E29.11791
G1 X52.494 Y140.167 E29.13138
G1 X52.015 Y139.514 E29.14485
G1 X51.604 Y138.817 E29.1583
G1 X51.262 Y138.083 E29.17177
G1 X50.996 Y137.318 E29.18524
G1 X50.805 Y136.531 E29.19871
G1 X50.693 Y135.729 E29.21217
G1 X50.661 Y135 E29.22431
G1 X50.661 Y95 E29.88951
G1 X50.701 Y94.191 E29.90298
G1 X50.821 Y93.39 E29.91645
G1 X51.018 Y92.605 E29.92991
G1 X51.293 Y91.844 E29.94337
G1 X51.641 Y91.113 E29.95683
G1 X52.06 Y90.419 E29.97031
G1 X52.545 Y89.771 E29.98377
G1 X53.091 Y89.174 E29.99723
G1 X53.694 Y88.633 E30.0107
G1 X54.347 Y88.154 E30.02417
G0 F3000 X54.731 Y88.383
G1 F2250 X55.422 Y87.999 E30.03731
G1 X56.147 Y87.687 E30.05044
G1 X56.9 Y87.45 E30.06357
G1 X57.674 Y87.291 E30.07671
G1 X58.459 Y87.21 E30.08983
G1 X58.861 Y87.2 E30.09652
G1 X171.139 Y87.2 E31.96371
G1 X171.928 Y87.24 E31.97685
G1 X172.708 Y87.359 E31.98997
G1 X173.473 Y87.557 E32.00311
G1 X174.213 Y87.831 E32.01623
G1 X174.922 Y88.179 E32.02937
G1 X175.593 Y88.597 E32.04251
G1 X176.217 Y89.08 E32.05564
G1 X176.79 Y89.623 E32.06876
G1 X177.305 Y90.222 E32.0819
G1 X177.756 Y90.87 E32.09503
G1 X178.14 Y91.561 E32.10818
G1 X178.452 Y92.286 E32.1213
G1 X178.689 Y93.039 E32.13443
G1 X178.848 Y93.813 E32.14757
G1 X178.929 Y94.598 E32.1607
G1 X178.939 Y95 E32.16738
G1 X178.939 Y135 E32.83259
G1 X178.899 Y135.789 E32.84572
G1 X178.78 Y136.569 E32.85884
G1 X178.582 Y137.334 E32.87199
G1 X178.308 Y138.074 E32.88511
G1 X177.96 Y138.783 E32.89824
G1 X177.542 Y139.454 E32.91139
G1 X177.059 Y140.078 E32.92451
G1 X176.516 Y140.651 E32.93764
G1 X175.917 Y141.166 E32.95078
G1 X175.269 Y141.617 E32.96391
G1 X174.578 Y142.001 E32.97705
G1 X173.853 Y142.313 E32.99018
G1 X173.1 Y142.55 E33.00331
G1 X172.326 Y142.709 E33.01645
G1 X171.541 Y142.79 E33.02957
G1 X171.139 Y142.8 E33.03626
G1 X58.861 Y142.8 E34.90345
G1 X58.072 Y142.76 E34.91659
G1 X57.292 Y142.641 E34.92971
G1 X56.527 Y142.443 E34.94285
G1 X55.787 Y142.169 E34.95597
G1 X55.078 Y141.821 E34.96911
G1 X54.407 Y141.403 E34.98225
G1 X53.783 Y140.92 E34.99538
G1 X53.21 Y140.377 E35.00851
G1 X52.695 Y139.778 E35.02164
G1 X52.244 Y139.13 E35.03477
G1 X51.86 Y138.439 E35.04792
G1 X51.548 Y137.714 E35.06104
G1 X51.311 Y136.961 E35.07417
G1 X51.152 Y136.187 E35.08731
G1 X51.071 Y135.402 E35.10044
G1 X51.061 Y135 E35.10712
G1 X51.061 Y95 E35.77233
G1 X51.101 Y94.211 E35.78546
G1 X51.22 Y93.431 E35.79859
G1 X51.418 Y92.666 E35.81173
G1 X51.692 Y91.926 E35.82485
G1 X52.04 Y91.217 E35.83798
G1 X52.458 Y90.546 E35.85113
G1 X52.941 Y89.922 E35.86425
G1 X53.484 Y89.349 E35.87738
G1 X54.083 Y88.834 E35.89052
G1 X54.731 Y88.383 E35.90365
G0 F3000 X55.114 Y88.619
G1 F2250 X55.797 Y88.264 E35.91645
G1 X56.512 Y87.983 E35.92923
G1 X57.254 Y87.777 E35.94203
G1 X58.012 Y87.649 E35.95482
G1 X58.861 Y87.6 E35.96896
G1 X171.139 Y87.6 E37.83615
G1 X171.907 Y87.64 E37.84894
G1 X172.667 Y87.759 E37.86173
G1 X173.41 Y87.957 E37.87452
G1 X174.129 Y88.231 E37.88731
G1 X174.815 Y88.578 E37.9001
G1 X175.462 Y88.994 E37.91289
G1 X176.062 Y89.475 E37.92568
G1 X176.609 Y90.016 E37.93847
G1 X177.097 Y90.611 E37.95127
G1 X177.52 Y91.253 E37.96406
G1 X177.875 Y91.936 E37.97686
G1 X178.156 Y92.651 E37.98963
G1 X178.362 Y93.393 E38.00244
G1 X178.49 Y94.151 E38.01522
G1 X178.539 Y95 E38.02937
G1 X178.539 Y135 E38.69457
G1 X178.499 Y135.768 E38.70736
G1 X178.38 Y136.528 E38.72015
G1 X178.182 Y137.271 E38.73294
G1 X177.908 Y137.99 E38.74573
G1 X177.561 Y138.676 E38.75852
G1 X177.145 Y139.323 E38.77131
G1 X176.664 Y139.923 E38.7841
G1 X176.123 Y140.47 E38.79689
G1 X175.528 Y140.958 E38.80969
G1 X174.886 Y141.381 E38.82248
G1 X174.203 Y141.736 E38.83528
G1 X173.488 Y142.017 E38.84805
G1 X172.746 Y142.223 E38.86086
G1 X171.988 Y142.351 E38.87364
G1 X171.139 Y142.4 E38.88779
G1 X58.861 Y142.4 E40.75498
G1 X58.093 Y142.36 E40.76777
G1 X57.333 Y142.241 E40.78056
G1 X56.59 Y142.043 E40.79335
G1 X55.871 Y141.769 E40.80614
G1 X55.185 Y141.422 E40.81893
G1 X54.538 Y141.006 E40.83172
G1 X53.938 Y140.525 E40.84451
G1 X53.391 Y139.984 E40.8573
G1 X52.903 Y139.389 E40.8701
G1 X52.48 Y138.747 E40.88288
G1 X52.125 Y138.064 E40.89568
G1 X51.844 Y137.349 E40.90846
G1 X51.638 Y136.607 E40.92127
G1 X51.51 Y135.849 E40.93405
G1 X51.461 Y135 E40.94819
G1 X51.461 Y95 E41.6134
G1 X51.501 Y94.232 E41.62618
G1 X51.62 Y93.472 E41.63898
G1 X51.818 Y92.729 E41.65176
G1 X52.092 Y92.01 E41.66456
G1 X52.439 Y91.324 E41.67735
G1 X52.855 Y90.677 E41.69014
G1 X53.336 Y90.077 E41.70293
G1 X53.877 Y89.53 E41.71572
G1 X54.472 Y89.042 E41.72852
G1 X55.114 Y88.619 E41.7413
G0 F3000 X54.859 Y89.257
G1 F2250 X55.495 Y88.862 E41.75375
G1 X56.169 Y88.538 E41.76619
G1 X56.874 Y88.288 E41.77863
G1 X57.602 Y88.114 E41.79108
G1 X58.344 Y88.019 E41.80352
G1 X58.861 Y88 E41.81212
G1 X171.139 Y88 E43.67931
G1 X171.886 Y88.04 E43.69175
G1 X172.624 Y88.159 E43.70418
G1 X173.346 Y88.357 E43.71663
G1 X174.042 Y88.63 E43.72907
G1 X174.705 Y88.977 E43.74151
G1 X175.328 Y89.392 E43.75396
G1 X175.902 Y89.871 E43.76639
G1 X176.423 Y90.408 E43.77884
G1 X176.882 Y90.998 E43.79127
G1 X177.277 Y91.634 E43.80372
G1 X177.601 Y92.308 E43.81615
G1 X177.851 Y93.013 E43.82859
G1 X178.025 Y93.741 E43.84104
G1 X178.12 Y94.483 E43.85348
G1 X178.139 Y95 E43.86209
G1 X178.139 Y135 E44.52729
G1 X178.099 Y135.747 E44.53973
G1 X177.98 Y136.485 E44.55216
G1 X177.782 Y137.207 E44.56461
G1 X177.509 Y137.903 E44.57704
G1 X177.162 Y138.566 E44.58949
G1 X176.747 Y139.189 E44.60194
G1 X176.268 Y139.763 E44.61437
G1 X175.731 Y140.284 E44.62681
G1 X175.141 Y140.743 E44.63924
G1 X174.505 Y141.138 E44.65169
G1 X173.831 Y141.462 E44.66413
G1 X173.126 Y141.712 E44.67657
G1 X172.398 Y141.886 E44.68902
G1 X171.656 Y141.981 E44.70146
G1 X171.139 Y142 E44.71006
G1 X58.861 Y142 E46.57725
G1 X58.114 Y141.96 E46.58969
G1 X57.376 Y141.841 E46.60212
