;FLAVOR:Marlin
;TIME:1170
;Filament used: 4.15524m
;Layer height: 0.2
;MINX:87.93
;MINY:104.347
;MINZ:0.5
;MAXX:142.07
;MAXY:125.665
;MAXZ:25.5
;Generated with Cura_SteamEngine 4.4.1
M140 S90
M105
M190 S90
M104 S230
M105
M109 S230
M82 ;absolute extrusion mode
G28 ;Home
G1 Z15.0 F6000 ;Move the platform down 15mm
;Prime the extruder
G92 E0
G1 F200 E3
G92 E0
G92 E0
G92 E0
G1 F1500 E-6.5
;LAYER_COUNT:126
;LAYER:0
M107
;MESH:404.stl
G0 F3000 X87.93 Y124 Z0.5
;TYPE:WALL-OUTER
G1 F1500 E0
G1 F2250 X87.93 Y106 E7.48353
G1 X142.07 Y106 E29.99233
G1 X142.07 Y124 E37.47586
G1 X87.93 Y124 E59.98465
G0 F3000 X87.93 Y123.8
G0 X88.03 Y123.8
G0 X89.92 Y122.01
;TYPE:SKIN
G1 F2250 X89.92 Y107.99 E65.81349
G1 X140.08 Y107.99 E86.6676
G1 X140.08 Y122.01 E92.49644
G1 X89.92 Y122.01 E113.35054
G0 F3000 X92.825 Y121.109
G1 F2250 X90.82 Y119.104 E114.5294
G0 F3000 X90.82 Y116.275
G1 F2250 X95.653 Y121.109 E117.37132
G0 F3000 X98.482 Y121.109
G1 F2250 X90.82 Y113.447 E121.87628
G0 F3000 X90.82 Y110.619
G1 F2250 X101.31 Y121.109 E128.044
G0 F3000 X104.139 Y121.109
G1 F2250 X91.918 Y108.889 E135.22918
G0 F3000 X94.747 Y108.889
G1 F2250 X106.967 Y121.109 E142.41407
G0 F3000 X109.796 Y121.109
G1 F2250 X97.575 Y108.889 E149.59926
G0 F3000 X100.404 Y108.889
G1 F2250 X112.624 Y121.109 E156.78415
G0 F3000 X115.452 Y121.109
G1 F2250 X103.232 Y108.889 E163.96904
G0 F3000 X106.061 Y108.889
G1 F2250 X118.281 Y121.109 E171.15393
G0 F3000 X121.109 Y121.109
G1 F2250 X108.889 Y108.889 E178.33883
G0 F3000 X111.717 Y108.889
G1 F2250 X123.938 Y121.109 E185.52401
G0 F3000 X126.766 Y121.109
G1 F2250 X114.546 Y108.889 E192.7089
G0 F3000 X117.374 Y108.889
G1 F2250 X129.594 Y121.109 E199.8938
G0 F3000 X132.423 Y121.109
G1 F2250 X120.203 Y108.889 E207.07869
G0 F3000 X123.031 Y108.889
G1 F2250 X135.251 Y121.109 E214.26358
G0 F3000 X138.08 Y121.109
G1 F2250 X125.86 Y108.889 E221.44847
G0 F3000 X128.688 Y108.889
G1 F2250 X139.179 Y119.38 E227.61678
G0 F3000 X139.179 Y116.551
G1 F2250 X131.516 Y108.889 E232.12203
G0 F3000 X134.345 Y108.889
G1 F2250 X139.179 Y113.723 E234.96424
G0 F3000 X139.179 Y110.894
G1 F2250 X137.173 Y108.889 E236.1434
;MESH:NONMESH
G0 F600 X137.173 Y108.889 Z0.7
G0 F3000 X98.776 Y123.9
G0 X98.776 Y124
;TIME_ELAPSED:22.293683
;LAYER:1
M140 S90
M106 S255
;TYPE:WALL-OUTER
;MESH:404.stl
G1 F2250 X98.776 Y106 E239.13681
G1 X99.846 Y106 E239.31475
G1 X99.846 Y124 E240.91623
G1 X98.776 Y124 E241.09417
G0 F4500 X98.776 Y123.8
G1 F1500 E234.59417
G0 F4500 X98.876 Y123.8
G0 X99.826 Y123.118
G0 X101.511 Y123.118
G0 X111.906 Y123.118
G0 X113.591 Y123.118
G0 X113.571 Y123.118
G1 F1500 E241.09417
G1 F2250 X113.57 Y107 E243.7746
G1 X113.57 Y106 E243.9409
G1 X114.57 Y106 E244.04842
G1 X117.422 Y106 E244.52271
G1 X117.422 Y124 E247.51612
G1 X113.571 Y124 E248.15654
G1 X113.571 Y123.118 E248.30322
G0 F4500 X113.571 Y122.918
G0 X114.488 Y123.099
;TYPE:SKIN
G1 F2250 X116.521 Y121.066 E248.78135
G0 F4500 X114.471 Y120.288
G1 F2250 X116.521 Y118.238 E249.26348
G0 F4500 X114.47 Y117.46
G1 F2250 X116.521 Y115.409 E249.74584
G0 F4500 X114.47 Y114.631
G1 F2250 X116.521 Y112.581 E250.22809
G0 F4500 X114.469 Y111.804
G1 F2250 X116.521 Y109.752 E250.71069
G0 F4500 X114.469 Y108.975
G1 F2250 X116.521 Y106.924 E251.19317
G0 F4500 X115.422 Y108
G1 F1500 E244.69317
G0 F4500 X117.402 Y123.93
G0 X119.087 Y123.93
G0 X135.958 Y123.93
G0 X137.643 Y123.93
G0 X137.623 Y124
;TYPE:WALL-OUTER
G1 F1500 E251.19317
G1 F2250 X137.623 Y106 E254.18658
G1 X138.693 Y106 E254.36452
G1 X138.693 Y124 E255.966
G1 X137.623 Y124 E256.14394
G0 F4500 X137.623 Y123.8
G1 F1500 E249.64394
;MESH:NONMESH
G0 F600 X137.623 Y123.8 Z0.9
G0 F4500 X137.723 Y123.8
G0 X135.958 Y123.93
G0 X119.075 Y125.653
G0 X111.918 Y125.653
G0 X101.511 Y123.93
G0 X99.826 Y123.93
G0 X98.876 Y123.93
G0 X98.776 Y124
;TIME_ELAPSED:28.453608
;LAYER:2
;TYPE:WALL-OUTER
;MESH:404.stl
G1 F1500 E256.14394
G1 F2250 X98.776 Y106 E259.13735
G1 X99.846 Y106 E259.31529
G1 X99.846 Y124 E260.91677
G1 X98.776 Y124 E261.09471
G0 F6000 X98.776 Y123.8
G1 F1500 E254.59471
G0 F6000 X98.876 Y123.8
G0 X99.826 Y122.233
G0 X101.511 Y122.233
G0 X111.464 Y122.233
G0 X113.149 Y122.233
G0 X113.129 Y122.233
G1 F1500 E261.09471
G1 F2250 X113.128 Y107 E263.62797
G1 X113.128 Y106 E263.79427
G1 X114.128 Y106 E263.90178
G1 X117.829 Y106 E264.51726
G1 X117.83 Y123 E267.34437
G1 X117.83 Y124 E267.51067
G1 X116.83 Y124 E267.61819
G1 X113.129 Y124 E268.23367
G1 X113.129 Y122.233 E268.52752
G0 F6000 X113.129 Y122.033
G0 X113.229 Y122.034
G0 X115.119 Y122.01
;TYPE:SKIN
G1 F2250 X115.118 Y107.99 E270.85905
G1 X115.839 Y107.99 E270.97896
G1 X115.84 Y122.01 E273.31049
G1 X115.119 Y122.01 E273.4304
G0 F6000 X115.129 Y122.001
G1 F1500 E266.9304
G0 F6000 X117.829 Y123.931
G0 X119.494 Y123.93
G0 X135.958 Y123.931
G0 X137.643 Y123.931
G0 X137.623 Y124
;TYPE:WALL-OUTER
G1 F1500 E273.4304
G1 F2250 X137.623 Y106 E276.42381
G1 X138.693 Y106 E276.60175
G1 X138.693 Y124 E278.20323
G1 X137.623 Y124 E278.38117
G0 F6000 X137.623 Y123.8
G1 F1500 E271.88117
;MESH:NONMESH
G0 F600 X137.623 Y123.8 Z1.1
G0 F6000 X137.723 Y123.8
G0 X135.958 Y123.93
G0 X119.483 Y125.653
G0 X111.476 Y125.653
G0 X101.511 Y123.93
G0 X99.826 Y123.93
G0 X98.876 Y123.93
G0 X98.776 Y124
;TIME_ELAPSED:34.595196
;LAYER:3
;TYPE:WALL-OUTER
;MESH:404.stl
G1 F1500 E278.38117
G1 F2250 X98.776 Y106 E281.37458
G1 X99.846 Y106 E281.55252
G1 X99.846 Y124 E283.154
G1 X98.776 Y124 E283.33194
G0 F6000 X98.776 Y123.8
G1 F1500 E276.83194
G0 F6000 X98.876 Y123.8
G0 X99.826 Y123.827
G0 X101.511 Y123.827
G0 X111.114 Y123.827
G0 X112.799 Y123.827
G0 X112.779 Y123.827
G1 F1500 E283.33194
G1 F2250 X112.778 Y107 E286.13028
G1 X112.778 Y106 E286.29658
G1 X113.778 Y106 E286.40409
G1 X118.185 Y106 E287.13698
G1 X118.186 Y123 E289.96409
G1 X118.186 Y124 E290.13039
G1 X117.186 Y124 E290.23791
G1 X112.779 Y124 E290.97079
G1 X112.779 Y123.827 E290.99956
G0 F6000 X112.779 Y123.627
G0 X112.879 Y123.628
G0 X114.769 Y122.01
;TYPE:SKIN
G1 F2250 X114.768 Y107.99 E293.3311
G1 X116.195 Y107.99 E293.56841
G1 X116.196 Y122.01 E295.89995
G1 X114.769 Y122.01 E296.13726
G0 F6000 X114.779 Y122.001
G1 F1500 E289.63726
G0 F6000 X118.185 Y123.931
G0 X119.85 Y123.93
G0 X135.958 Y123.931
G0 X137.643 Y123.931
G0 X137.623 Y124
;TYPE:WALL-OUTER
G1 F1500 E296.13726
G1 F2250 X137.623 Y106 E299.13067
G1 X138.693 Y106 E299.30861
G1 X138.693 Y124 E300.91009
G1 X137.623 Y124 E301.08803
G0 F6000 X137.623 Y123.8
G1 F1500 E294.58803
;MESH:NONMESH
G0 F600 X137.623 Y123.8 Z1.3
G0 F6000 X137.723 Y123.8
G0 X135.958 Y123.93
G0 X119.839 Y125.653
G0 X111.126 Y125.653
G0 X101.511 Y123.93
G0 X99.826 Y123.93
G0 X98.876 Y123.93
G0 X98.776 Y124
;TIME_ELAPSED:40.788867
;LAYER:4
;TYPE:WALL-OUTER
;MESH:404.stl
G1 F1500 E301.08803
G1 F2250 X98.776 Y106 E304.08144
G1 X99.846 Y106 E304.25938
G1 X99.846 Y124 E305.86086
G1 X98.776 Y124 E306.0388
G0 F6000 X98.776 Y123.8
G1 F1500 E299.5388
G0 F6000 X98.876 Y123.8
G0 X99.826 Y120.138
G0 X101.511 Y120.138
G0 X110.816 Y120.138
G0 X112.501 Y120.138
G0 X112.481 Y120.138
G1 F1500 E306.0388
G1 F2250 X112.48 Y107 E308.22366
G1 X112.48 Y106 E308.38996
G1 X113.48 Y106 E308.49747
G1 X118.513 Y106 E309.33446
G1 X118.514 Y123 E312.16157
G1 X118.514 Y124 E312.32787
G1 X117.514 Y124 E312.43539
G1 X112.481 Y124 E313.27238
G1 X112.481 Y120.138 E313.91463
G0 F6000 X112.481 Y119.938
G0 X112.581 Y119.939
G0 X114.471 Y120.138
;TYPE:SKIN
G1 F2250 X114.47 Y107.99 E315.93485
G1 X116.523 Y107.99 E316.27627
G1 X116.524 Y122.01 E318.6078
G1 X114.471 Y122.01 E318.94922
G1 X114.471 Y120.138 E319.26053
G0 F6000 X114.481 Y120.138
G1 F1500 E312.76053
G0 F6000 X118.513 Y123.931
G0 X120.178 Y123.93
G0 X135.958 Y123.931
G0 X137.643 Y123.931
G0 X137.623 Y124
;TYPE:WALL-OUTER
G1 F1500 E319.26053
G1 F2250 X137.623 Y106 E322.25395
G1 X138.693 Y106 E322.43189
G1 X138.693 Y124 E324.03336
G1 X137.623 Y124 E324.21131
G0 F6000 X137.623 Y123.8
G1 F1500 E317.71131
;MESH:NONMESH
G0 F600 X137.623 Y123.8 Z1.5
G0 F6000 X137.723 Y123.8
G0 X135.958 Y123.93
G0 X120.167 Y125.653
G0 X110.828 Y125.653
G0 X101.511 Y123.93
G0 X99.826 Y123.93
G0 X98.876 Y123.93
G0 X98.776 Y124
;TIME_ELAPSED:47.109832
;LAYER:5
;TYPE:WALL-OUTER
;MESH:404.stl
G1 F1500 E324.21131
G1 F2250 X98.776 Y106 E327.20472
G1 X99.846 Y106 E327.38266
G1 X99.846 Y124 E328.98413
G1 X98.776 Y124 E329.16208
G0 F6000 X98.776 Y123.8
G1 F1500 E322.66208
G0 F6000 X98.876 Y123.8
G0 X99.826 Y123.9
G0 X101.511 Y123.9
G0 X110.55 Y123.901
G0 X112.215 Y123.9
G0 X117.827 Y123.9
G0 X117.827 Y124
G1 F1500 E329.16208
G1 F2250 X112.215 Y124 E330.09536
G1 X112.214 Y107 E332.92247
G1 X112.214 Y106 E333.08877
G1 X113.214 Y106 E333.19628
G1 X118.826 Y106 E334.12956
G1 X118.827 Y123 E336.95667
G1 X118.827 Y124 E337.12297
G1 X117.827 Y124 E337.23049
G0 F6000 X117.627 Y124
G0 X117.627 Y123.9
G0 X116.837 Y122.01
;TYPE:SKIN
G1 F2250 X114.205 Y122.01 E337.66819
G1 X114.204 Y107.99 E339.99972
G1 X116.836 Y107.99 E340.43743
G1 X116.837 Y122.01 E342.76896
G0 F6000 X115.104 Y119.654
G1 F2250 X115.936 Y118.822 E342.96464
G0 F6000 X115.104 Y116.826
G1 F2250 X115.935 Y115.995 E343.16008
G0 F6000 X115.104 Y113.998
G1 F2250 X115.935 Y113.166 E343.35563
G0 F6000 X115.103 Y111.17
G1 F2250 X115.935 Y110.339 E343.55119
G1 F1500 E337.05119
G0 F6000 X118.826 Y123.931
G0 X120.491 Y123.93
G0 X135.958 Y123.931
G0 X137.643 Y123.931
G0 X137.623 Y124
;TYPE:WALL-OUTER
G1 F1500 E343.55119
G1 F2250 X137.623 Y106 E346.5446
G1 X138.693 Y106 E346.72254
G1 X138.693 Y124 E348.32402
G1 X137.623 Y124 E348.50196
G0 F6000 X137.623 Y123.8
G1 F1500 E342.00196
;MESH:NONMESH
G0 F600 X137.623 Y123.8 Z1.7
G0 F6000 X137.723 Y123.8
G0 X135.958 Y123.93
G0 X120.48 Y125.653
G0 X110.562 Y125.653
G0 X101.511 Y123.93
G0 X99.826 Y123.93
G0 X98.876 Y123.93
G0 X98.776 Y124
;TIME_ELAPSED:53.892377
;LAYER:6
;TYPE:WALL-OUTER
;MESH:404.stl
G1 F1500 E348.50196
G1 F2250 X98.776 Y106 E351.49537
G1 X99.846 Y106 E351.67331
G1 X99.846 Y124 E353.27479
G1 X98.776 Y124 E353.45273
G0 F6000 X98.776 Y123.8
G1 F1500 E346.95273
G0 F6000 X98.876 Y123.8
G0 X99.826 Y120.022
G0 X101.511 Y120.022
G0 X110.308 Y120.022
G0 X111.993 Y120.022
G0 X111.973 Y120.022
G1 F1500 E353.45273
G1 F2250 X111.972 Y107 E355.6183
G1 X111.972 Y106 E355.7846
G1 X112.972 Y106 E355.89211
G1 X119.107 Y106 E356.91237
G1 X119.107 Y124 E359.90578
G1 X111.973 Y124 E361.09217
G1 X111.973 Y120.022 E361.75371
G0 F6000 X111.973 Y119.822
G0 X112.073 Y119.823
G0 X113.963 Y120.022
;TYPE:SKIN
G1 F2250 X113.962 Y107.99 E363.75464
G1 X117.117 Y107.99 E364.27932
G1 X117.117 Y122.01 E366.61086
G1 X113.963 Y122.01 E367.13537
G1 X113.963 Y120.022 E367.46597
G0 F6000 X115.452 Y121.109
G1 F2250 X114.863 Y120.519 E367.60462
G0 F6000 X116.217 Y119.045
G1 F2250 X114.862 Y117.69 E367.92329
G0 F6000 X116.217 Y116.217
G1 F2250 X114.861 Y114.861 E368.2422
G0 F6000 X116.216 Y113.388
G1 F2250 X114.861 Y112.032 E368.56099
G0 F6000 X116.216 Y110.559
G1 F2250 X114.861 Y109.204 E368.87967
G1 F1500 E362.37967
G0 F6000 X119.087 Y123.93
G0 X120.772 Y123.93
G0 X135.958 Y123.93
G0 X137.643 Y123.93
G0 X137.623 Y124
;TYPE:WALL-OUTER
G1 F1500 E368.87967
G1 F2250 X137.623 Y106 E371.87308
G1 X138.693 Y106 E372.05102
G1 X138.693 Y124 E373.6525
G1 X137.623 Y124 E373.83044
G0 F6000 X137.623 Y123.8
G1 F1500 E367.33044
;MESH:NONMESH
G0 F600 X137.623 Y123.8 Z1.9
G0 F6000 X137.723 Y123.8
G0 X135.958 Y123.93
G0 X120.76 Y125.653
G0 X110.32 Y125.653
G0 X101.511 Y123.93
G0 X99.826 Y123.93
G0 X98.876 Y123.93
G0 X98.776 Y124
;TIME_ELAPSED:60.864717
;LAYER:7
;TYPE:WALL-OUTER
;MESH:404.stl
G1 F1500 E373.83044
G1 F2250 X98.776 Y106 E376.82385
G1 X99.846 Y106 E377.00179
G1 X99.846 Y124 E378.60327
G1 X98.776 Y124 E378.78121
G0 F6000 X98.776 Y123.8
G1 F1500 E372.28121
G0 F6000 X98.876 Y123.8
G0 X99.826 Y122.408
G0 X101.511 Y122.408
G0 X110.078 Y122.408
G0 X111.763 Y122.408
G0 X111.743 Y122.408
G1 F1500 E378.78121
G1 F2250 X111.742 Y107 E381.34357
G1 X111.742 Y106 E381.50987
G1 X112.742 Y106 E381.61739
G1 X119.307 Y106 E382.70915
G1 X119.307 Y124 E385.70256
G1 X111.743 Y124 E386.96046
G1 X111.743 Y122.408 E387.22521
G0 F6000 X111.743 Y122.208
G0 X111.843 Y122.209
G0 X113.733 Y122.01
;TYPE:SKIN
G1 F2250 X113.732 Y107.99 E389.55675
G1 X117.317 Y107.99 E390.15293
G1 X117.317 Y122.01 E392.48447
G1 X113.733 Y122.01 E393.08049
G0 F6000 X114.633 Y120.126
G1 F2250 X116.416 Y118.342 E393.49994
G0 F6000 X114.633 Y117.297
G1 F2250 X116.416 Y115.514 E393.91928
G0 F6000 X114.632 Y114.469
G1 F2250 X116.416 Y112.685 E394.33885
G0 F6000 X114.631 Y111.642
G1 F2250 X116.416 Y109.857 E394.75865
G1 F1500 E388.25865
G0 F6000 X119.287 Y123.93
G0 X120.972 Y123.93
G0 X135.958 Y123.93
G0 X137.643 Y123.93
G0 X137.623 Y124
;TYPE:WALL-OUTER
G1 F1500 E394.75865
G1 F2250 X137.623 Y106 E397.75206
G1 X138.693 Y106 E397.93001
G1 X138.693 Y124 E399.53148
G1 X137.623 Y124 E399.70942
G0 F6000 X137.623 Y123.8
G1 F1500 E393.20942
;MESH:NONMESH
G0 F600 X137.623 Y123.8 Z2.1
G0 F6000 X137.723 Y123.8
G0 X135.958 Y123.93
G0 X120.96 Y125.653
G0 X110.09 Y125.653
G0 X101.511 Y123.93
G0 X99.826 Y123.93
G0 X98.876 Y123.93
G0 X98.776 Y124
;TIME_ELAPSED:67.843536
;LAYER:8
;TYPE:WALL-OUTER
;MESH:404.stl
G1 F1500 E399.70942
G1 F2250 X98.776 Y106 E402.70284
G1 X99.846 Y106 E402.88078
G1 X99.846 Y124 E404.48225
G1 X98.776 Y124 E404.66019
G0 F6000 X98.776 Y123.8
G1 F1500 E398.16019
G0 F6000 X98.876 Y123.8
G0 X99.826 Y123.93
G0 X101.511 Y123.93
G0 X109.877 Y123.894
G0 X111.542 Y123.887
G0 X119.408 Y123.93
G0 X119.508 Y124
G1 F1500 E404.66019
G1 F2250 X111.542 Y124 E405.98495
G1 X111.521 Y118.333 E406.92738
G1 X111.521 Y106 E408.97836
G1 X119.498 Y106 E410.30494
G1 X119.508 Y115 E411.80165
G1 X119.508 Y124 E413.29836
G0 F6000 X119.308 Y124
G0 X119.308 Y123.9
G0 X117.518 Y122.01
;TYPE:SKIN
G1 F2250 X113.524 Y122.01 E413.96256
G1 X113.511 Y118.333 E414.57405
G1 X113.511 Y107.99 E416.2941
G1 X117.51 Y107.99 E416.95914
G1 X117.518 Y115 E418.12491
G1 X117.518 Y122.01 E419.29067
G0 F6000 X115.452 Y121.109
G1 F2250 X114.416 Y120.073 E419.53433
G0 F6000 X116.618 Y119.446
G1 F2250 X114.409 Y117.238 E420.05373
G0 F6000 X116.618 Y116.618
G1 F2250 X114.409 Y114.409 E420.57325
G0 F6000 X116.616 Y113.788
G1 F2250 X114.409 Y111.581 E421.09231
G0 F6000 X116.613 Y110.956
G1 F2250 X114.547 Y108.89 E421.5782
G1 F1500 E415.0782
G0 F6000 X119.488 Y123.93
G0 X121.173 Y123.929
G0 X135.958 Y123.93
G0 X137.643 Y123.93
G0 X137.623 Y124
;TYPE:WALL-OUTER
G1 F1500 E421.5782
G1 F2250 X137.623 Y106 E424.57161
G1 X138.693 Y106 E424.74955
G1 X138.693 Y124 E426.35103
G1 X137.623 Y124 E426.52897
G0 F6000 X137.623 Y123.8
G1 F1500 E420.02897
;MESH:NONMESH
G0 F600 X137.623 Y123.8 Z2.3
G0 F6000 X137.723 Y123.8
G0 X135.958 Y123.93
G0 X121.162 Y125.653
G0 X109.895 Y125.653
G0 X101.511 Y123.93
G0 X99.826 Y123.93
G0 X98.876 Y123.93
G0 X98.776 Y124
;TIME_ELAPSED:75.092503
;LAYER:9
;TYPE:WALL-OUTER
;MESH:404.stl
G1 F1500 E426.52897
G1 F2250 X98.776 Y106 E429.52238
G1 X99.846 Y106 E429.70032
G1 X99.846 Y124 E431.3018
G1 X98.776 Y124 E431.47974
G0 F6000 X98.776 Y123.8
G1 F1500 E424.97974
G0 F6000 X98.876 Y123.8
G0 X99.826 Y120.883
G0 X101.511 Y120.883
G0 X109.647 Y120.883
G0 X111.332 Y120.883
G0 X111.312 Y120.883
G1 F1500 E431.47974
G1 F2250 X111.311 Y107 E433.78849
G1 X111.311 Y106 E433.95479
G1 X112.311 Y106 E434.06231
G1 X119.7 Y106 E435.2911
G1 X119.701 Y123 E438.11821
G1 X119.701 Y124 E438.28451
G1 X118.701 Y124 E438.39203
G1 X111.312 Y124 E439.62082
G1 X111.312 Y120.883 E440.13918
G0 F6000 X111.312 Y120.683
G0 X111.412 Y120.684
G0 X113.302 Y120.883
;TYPE:SKIN
G1 F2250 X113.301 Y107.99 E442.2833
G1 X117.71 Y107.99 E443.01652
G1 X117.711 Y122.01 E445.34805
G1 X113.302 Y122.01 E446.08127
G1 X113.302 Y120.883 E446.26869
G0 F6000 X116.478 Y121.109
G1 F2250 X116.81 Y120.777 E446.34677
G0 F6000 X114.201 Y120.557
G1 F2250 X116.81 Y117.948 E446.96037
G0 F6000 X114.201 Y117.729
G1 F2250 X116.81 Y115.12 E447.57397
G0 F6000 X114.201 Y114.9
G1 F2250 X116.809 Y112.292 E448.18733
G0 F6000 X114.201 Y112.072
G1 F2250 X116.809 Y109.464 E448.80069
G0 F6000 X114.555 Y108.89
G1 F2250 X114.201 Y109.244 E448.88395
G1 F1500 E442.38395
G0 F6000 X119.7 Y123.931
G0 X121.365 Y123.93
G0 X135.958 Y123.931
G0 X137.643 Y123.931
