;FLAVOR:Marlin
;TIME:1168
;Filament used: 4.15603m
;Layer height: 0.2
;MINX:6.242
;MINY:5.785
;MINZ:0.5
;MAXX:60.381
;MAXY:27.103
;MAXZ:25.5
;Generated with Cura_SteamEngine 4.4.1
M140 S90
M105
M190 S90
M104 S230
M105
M109 S230
M82 ;absolute extrusion mode
G28 ;Home
G1 Z15.0 F6000 ;Move the platform down 15mm
;Prime the extruder
G92 E0
G1 F200 E3
G92 E0
G92 E0
G92 E0
G1 F1500 E-6.5
;LAYER_COUNT:126
;LAYER:0
M107
;MESH:404.stl
G0 F3000 X6.242 Y25.438 Z0.5
;TYPE:WALL-OUTER
G1 F1500 E0
G1 F2250 X6.242 Y7.438 E7.48353
G1 X60.381 Y7.438 E29.99191
G1 X60.381 Y25.438 E37.47544
G1 X6.242 Y25.438 E59.98382
G0 F3000 X6.242 Y25.238
G0 X6.342 Y25.238
G0 X8.232 Y23.448
;TYPE:SKIN
G1 F2250 X8.232 Y9.428 E65.81266
G1 X58.391 Y9.428 E86.66635
G1 X58.391 Y23.448 E92.49519
G1 X8.232 Y23.448 E113.34888
G0 F3000 X11.233 Y22.547
G1 F2250 X9.132 Y20.445 E114.58448
G0 F3000 X9.132 Y17.617
G1 F2250 X14.062 Y22.547 E117.48313
G0 F3000 X16.89 Y22.547
G1 F2250 X9.132 Y14.789 E122.04454
G0 F3000 X9.132 Y11.96
G1 F2250 X19.719 Y22.547 E128.26929
G0 F3000 X22.547 Y22.547
G1 F2250 X10.328 Y10.328 E135.45359
G0 F3000 X13.156 Y10.328
G1 F2250 X25.375 Y22.547 E142.63789
G0 F3000 X28.204 Y22.547
G1 F2250 X15.984 Y10.328 E149.82249
G0 F3000 X18.813 Y10.328
G1 F2250 X31.032 Y22.547 E157.0068
G0 F3000 X33.861 Y22.547
G1 F2250 X21.641 Y10.328 E164.19139
G0 F3000 X24.47 Y10.328
G1 F2250 X36.689 Y22.547 E171.3757
G0 F3000 X39.518 Y22.547
G1 F2250 X27.298 Y10.328 E178.56029
G0 F3000 X30.126 Y10.328
G1 F2250 X42.346 Y22.547 E185.74489
G0 F3000 X45.174 Y22.547
G1 F2250 X32.955 Y10.328 E192.9292
G0 F3000 X35.783 Y10.328
G1 F2250 X48.003 Y22.547 E200.11379
G0 F3000 X50.831 Y22.547
G1 F2250 X38.612 Y10.328 E207.2981
G0 F3000 X41.44 Y10.328
G1 F2250 X53.66 Y22.547 E214.4827
G0 F3000 X56.488 Y22.547
G1 F2250 X44.269 Y10.328 E221.667
G0 F3000 X47.097 Y10.328
G1 F2250 X57.49 Y20.721 E227.77768
G0 F3000 X57.49 Y17.892
G1 F2250 X49.925 Y10.328 E232.22532
G0 F3000 X52.754 Y10.328
G1 F2250 X57.49 Y15.064 E235.00991
G0 F3000 X57.49 Y12.235
G1 F2250 X55.582 Y10.328 E236.13144
;MESH:NONMESH
G0 F600 X55.582 Y10.328 Z0.7
G0 F3000 X17.088 Y25.338
G0 X17.088 Y25.438
;TIME_ELAPSED:19.896883
;LAYER:1
M140 S90
M106 S255
;TYPE:WALL-OUTER
;MESH:404.stl
G1 F2250 X17.088 Y7.438 E239.12486
G1 X18.158 Y7.438 E239.3028
G1 X18.158 Y25.438 E240.90427
G1 X17.088 Y25.438 E241.08222
G0 F4500 X17.088 Y25.238
G1 F1500 E234.58222
G0 F4500 X17.188 Y25.238
G0 X18.138 Y24.556
G0 X19.823 Y24.556
G0 X30.218 Y24.556
G0 X31.903 Y24.556
G0 X31.883 Y24.556
G1 F1500 E241.08222
G1 F2250 X31.882 Y8.438 E243.76265
G1 X31.882 Y7.438 E243.92895
G1 X32.882 Y7.438 E244.03646
G1 X35.733 Y7.438 E244.51059
G1 X35.733 Y25.438 E247.504
G1 X31.883 Y25.438 E248.14426
G1 X31.883 Y24.556 E248.29093
G0 F4500 X31.883 Y24.356
G0 X31.983 Y24.357
G0 X32.782 Y23.785
;TYPE:SKIN
G1 F2250 X34.832 Y21.736 E248.77294
G0 F4500 X32.782 Y20.957
G1 F2250 X34.832 Y18.908 E249.25496
G0 F4500 X32.782 Y18.128
G1 F2250 X34.832 Y16.079 E249.73697
G0 F4500 X32.782 Y15.301
G1 F2250 X34.832 Y13.251 E250.2191
G0 F4500 X32.782 Y12.472
G1 F2250 X34.832 Y10.422 E250.70122
G0 F4500 X32.782 Y9.644
G1 F2250 X34.088 Y8.338 E251.00838
G0 F4500 X33.733 Y9.438
G1 F1500 E244.50838
G0 F4500 X35.713 Y25.368
G0 X37.398 Y25.368
G0 X54.27 Y25.368
G0 X55.955 Y25.368
G0 X55.935 Y25.438
;TYPE:WALL-OUTER
G1 F1500 E251.00838
G1 F2250 X55.935 Y7.438 E254.00179
G1 X57.005 Y7.438 E254.17973
G1 X57.005 Y25.438 E255.7812
G1 X55.935 Y25.438 E255.95915
G0 F4500 X55.935 Y25.238
G1 F1500 E249.45915
;MESH:NONMESH
G0 F600 X55.935 Y25.238 Z0.9
G0 F4500 X56.035 Y25.238
G0 X54.27 Y25.368
G0 X37.386 Y27.091
G0 X30.23 Y27.091
G0 X19.823 Y25.368
G0 X18.138 Y25.368
G0 X17.188 Y25.368
G0 X17.088 Y25.438
;TIME_ELAPSED:26.023062
;LAYER:2
;TYPE:WALL-OUTER
;MESH:404.stl
G1 F1500 E255.95915
G1 F2250 X17.088 Y7.438 E258.95256
G1 X18.158 Y7.438 E259.1305
G1 X18.158 Y25.438 E260.73198
G1 X17.088 Y25.438 E260.90992
G0 F6000 X17.088 Y25.238
G1 F1500 E254.40992
G0 F6000 X17.188 Y25.238
G0 X18.138 Y23.671
G0 X19.823 Y23.671
G0 X29.775 Y23.671
G0 X31.46 Y23.671
G0 X31.44 Y23.671
G1 F1500 E260.90992
G1 F2250 X31.439 Y8.438 E263.44318
G1 X31.439 Y7.438 E263.60948
G1 X32.439 Y7.438 E263.71699
G1 X36.14 Y7.438 E264.33247
G1 X36.141 Y24.438 E267.15958
G1 X36.141 Y25.438 E267.32588
G1 X35.141 Y25.438 E267.43339
G1 X31.44 Y25.438 E268.04887
G1 X31.44 Y23.671 E268.34273
G0 F6000 X31.44 Y23.471
G0 X31.54 Y23.472
G0 X33.43 Y23.448
;TYPE:SKIN
G1 F2250 X33.429 Y9.428 E270.67426
G1 X34.15 Y9.428 E270.79416
G1 X34.151 Y23.448 E273.1257
G1 X33.43 Y23.448 E273.2456
G0 F6000 X33.44 Y23.439
G1 F1500 E266.7456
G0 F6000 X36.14 Y25.369
G0 X37.805 Y25.368
G0 X54.27 Y25.369
G0 X55.955 Y25.369
G0 X55.935 Y25.438
;TYPE:WALL-OUTER
G1 F1500 E273.2456
G1 F2250 X55.935 Y7.438 E276.23901
G1 X57.005 Y7.438 E276.41696
G1 X57.005 Y25.438 E278.01843
G1 X55.935 Y25.438 E278.19637
G0 F6000 X55.935 Y25.238
G1 F1500 E271.69637
;MESH:NONMESH
G0 F600 X55.935 Y25.238 Z1.1
G0 F6000 X56.035 Y25.238
G0 X54.27 Y25.368
G0 X37.794 Y27.091
G0 X29.787 Y27.091
G0 X19.823 Y25.368
G0 X18.138 Y25.368
G0 X17.188 Y25.368
G0 X17.088 Y25.438
;TIME_ELAPSED:32.164650
;LAYER:3
;TYPE:WALL-OUTER
;MESH:404.stl
G1 F1500 E278.19637
G1 F2250 X17.088 Y7.438 E281.18979
G1 X18.158 Y7.438 E281.36773
G1 X18.158 Y25.438 E282.9692
G1 X17.088 Y25.438 E283.14715
G0 F6000 X17.088 Y25.238
G1 F1500 E276.64715
G0 F6000 X17.188 Y25.238
G0 X18.138 Y25.265
G0 X19.823 Y25.265
G0 X29.426 Y25.265
G0 X31.111 Y25.265
G0 X31.091 Y25.265
G1 F1500 E283.14715
G1 F2250 X31.09 Y8.438 E285.94549
G1 X31.09 Y7.438 E286.11179
G1 X32.09 Y7.438 E286.2193
G1 X36.497 Y7.438 E286.95219
G1 X36.498 Y24.438 E289.7793
G1 X36.498 Y25.438 E289.9456
G1 X35.498 Y25.438 E290.05311
G1 X31.091 Y25.438 E290.786
G1 X31.091 Y25.265 E290.81477
G0 F6000 X31.091 Y25.065
G0 X31.191 Y25.066
G0 X33.081 Y23.448
;TYPE:SKIN
G1 F2250 X33.08 Y9.428 E293.14631
G1 X34.507 Y9.428 E293.38362
G1 X34.508 Y23.448 E295.71515
G1 X33.081 Y23.448 E295.95246
G0 F6000 X33.091 Y23.439
G1 F1500 E289.45246
G0 F6000 X36.484 Y25.424
G0 X38.162 Y25.423
G0 X54.27 Y25.424
G0 X55.955 Y25.424
G0 X55.935 Y25.438
;TYPE:WALL-OUTER
G1 F1500 E295.95246
G1 F2250 X55.935 Y7.438 E298.94588
G1 X57.005 Y7.438 E299.12382
G1 X57.005 Y25.438 E300.72529
G1 X55.935 Y25.438 E300.90323
G0 F6000 X55.935 Y25.238
G1 F1500 E294.40323
;MESH:NONMESH
G0 F600 X55.935 Y25.238 Z1.3
G0 F6000 X56.035 Y25.238
G0 X54.27 Y25.368
G0 X38.151 Y27.091
G0 X29.438 Y27.091
G0 X19.823 Y25.368
G0 X18.138 Y25.368
G0 X17.188 Y25.368
G0 X17.088 Y25.438
;TIME_ELAPSED:38.356575
;LAYER:4
;TYPE:WALL-OUTER
;MESH:404.stl
G1 F1500 E300.90323
G1 F2250 X17.088 Y7.438 E303.89665
G1 X18.158 Y7.438 E304.07459
G1 X18.158 Y25.438 E305.67606
G1 X17.088 Y25.438 E305.85401
G0 F6000 X17.088 Y25.238
G1 F1500 E299.35401
G0 F6000 X17.188 Y25.238
G0 X18.138 Y21.576
G0 X19.823 Y21.576
G0 X29.128 Y21.576
G0 X30.813 Y21.576
G0 X30.793 Y21.576
G1 F1500 E305.85401
G1 F2250 X30.792 Y8.438 E308.03886
G1 X30.792 Y7.438 E308.20516
G1 X31.792 Y7.438 E308.31268
G1 X36.825 Y7.438 E309.14967
G1 X36.826 Y24.438 E311.97678
G1 X36.826 Y25.438 E312.14308
G1 X35.826 Y25.438 E312.2506
G1 X30.793 Y25.438 E313.08759
G1 X30.793 Y21.576 E313.72984
G0 F6000 X30.793 Y21.376
G0 X30.893 Y21.377
G0 X32.783 Y21.576
;TYPE:SKIN
G1 F2250 X32.782 Y9.428 E315.75006
G1 X34.835 Y9.428 E316.09148
G1 X34.836 Y23.448 E318.42301
G1 X32.783 Y23.448 E318.76443
G1 X32.783 Y21.576 E319.07574
G0 F6000 X32.793 Y21.576
G1 F1500 E312.57574
G0 F6000 X36.825 Y25.369
G0 X38.49 Y25.368
G0 X54.27 Y25.369
G0 X55.955 Y25.369
G0 X55.935 Y25.438
;TYPE:WALL-OUTER
G1 F1500 E319.07574
G1 F2250 X55.935 Y7.438 E322.06915
G1 X57.005 Y7.438 E322.24709
G1 X57.005 Y25.438 E323.84857
G1 X55.935 Y25.438 E324.02651
G0 F6000 X55.935 Y25.238
G1 F1500 E317.52651
;MESH:NONMESH
G0 F600 X55.935 Y25.238 Z1.5
G0 F6000 X56.035 Y25.238
G0 X54.27 Y25.368
G0 X38.479 Y27.091
G0 X29.14 Y27.091
G0 X19.823 Y25.368
G0 X18.138 Y25.368
G0 X17.188 Y25.368
G0 X17.088 Y25.438
;TIME_ELAPSED:44.677539
;LAYER:5
;TYPE:WALL-OUTER
;MESH:404.stl
G1 F1500 E324.02651
G1 F2250 X17.088 Y7.438 E327.01992
G1 X18.158 Y7.438 E327.19787
G1 X18.158 Y25.438 E328.79934
G1 X17.088 Y25.438 E328.97728
G0 F6000 X17.088 Y25.238
G1 F1500 E322.47728
G0 F6000 X17.188 Y25.238
G0 X18.138 Y25.338
G0 X19.823 Y25.338
G0 X28.862 Y25.339
G0 X30.527 Y25.338
G0 X36.139 Y25.338
G0 X36.139 Y25.438
G1 F1500 E328.97728
G1 F2250 X30.527 Y25.438 E329.91056
G1 X30.526 Y8.438 E332.73767
G1 X30.526 Y7.438 E332.90397
G1 X31.526 Y7.438 E333.01149
G1 X37.138 Y7.438 E333.94477
G1 X37.139 Y24.438 E336.77188
G1 X37.139 Y25.438 E336.93818
G1 X36.139 Y25.438 E337.04569
G0 F6000 X35.939 Y25.438
G0 X35.939 Y25.338
G0 X35.149 Y23.448
;TYPE:SKIN
G1 F2250 X32.517 Y23.448 E337.4834
G1 X32.516 Y9.428 E339.81493
G1 X35.148 Y9.428 E340.25264
G1 X35.149 Y23.448 E342.58417
G0 F6000 X33.416 Y20.323
G1 F2250 X34.247 Y19.492 E342.77961
G0 F6000 X33.416 Y17.495
G1 F2250 X34.247 Y16.664 E342.97505
G0 F6000 X33.415 Y14.667
G1 F2250 X34.246 Y13.836 E343.17049
G0 F6000 X33.415 Y11.839
G1 F2250 X34.246 Y11.008 E343.36592
G1 F1500 E336.86592
G0 F6000 X37.138 Y25.369
G0 X38.803 Y25.368
G0 X54.27 Y25.369
G0 X55.955 Y25.369
G0 X55.935 Y25.438
;TYPE:WALL-OUTER
G1 F1500 E343.36592
G1 F2250 X55.935 Y7.438 E346.35934
G1 X57.005 Y7.438 E346.53728
G1 X57.005 Y25.438 E348.13875
G1 X55.935 Y25.438 E348.3167
G0 F6000 X55.935 Y25.238
G1 F1500 E341.8167
;MESH:NONMESH
G0 F600 X55.935 Y25.238 Z1.7
G0 F6000 X56.035 Y25.238
G0 X54.27 Y25.368
G0 X38.792 Y27.091
G0 X28.874 Y27.091
G0 X19.823 Y25.368
G0 X18.138 Y25.368
G0 X17.188 Y25.368
G0 X17.088 Y25.438
;TIME_ELAPSED:51.474010
;LAYER:6
;TYPE:WALL-OUTER
;MESH:404.stl
G1 F1500 E348.3167
G1 F2250 X17.088 Y7.438 E351.31011
G1 X18.158 Y7.438 E351.48805
G1 X18.158 Y25.438 E353.08953
G1 X17.088 Y25.438 E353.26747
G0 F6000 X17.088 Y25.238
G1 F1500 E346.76747
G0 F6000 X17.188 Y25.238
G0 X18.138 Y21.461
G0 X19.823 Y21.461
G0 X28.62 Y21.461
G0 X30.305 Y21.461
G0 X30.285 Y21.461
G1 F1500 E353.26747
G1 F2250 X30.284 Y8.438 E355.4332
G1 X30.284 Y7.438 E355.5995
G1 X31.284 Y7.438 E355.70701
G1 X37.419 Y7.438 E356.72727
G1 X37.419 Y25.438 E359.72068
G1 X30.285 Y25.438 E360.90707
G1 X30.285 Y21.461 E361.56845
G0 F6000 X30.285 Y21.261
G0 X30.385 Y21.262
G0 X32.275 Y21.461
;TYPE:SKIN
G1 F2250 X32.274 Y9.428 E363.56954
G1 X35.429 Y9.428 E364.09422
G1 X35.429 Y23.448 E366.42576
G1 X32.275 Y23.448 E366.95027
G1 X32.275 Y21.461 E367.28071
G0 F6000 X33.861 Y22.548
G1 F2250 X33.174 Y21.86 E367.4424
G0 F6000 X34.528 Y20.385
G1 F2250 X33.173 Y19.031 E367.76096
G0 F6000 X34.528 Y17.557
G1 F2250 X33.173 Y16.203 E368.07952
G0 F6000 X34.528 Y14.729
G1 F2250 X33.173 Y13.374 E368.39819
G0 F6000 X34.528 Y11.9
G1 F2250 X33.173 Y10.545 E368.71687
G1 F1500 E362.21687
G0 F6000 X37.399 Y25.368
G0 X39.084 Y25.368
G0 X54.27 Y25.368
G0 X55.955 Y25.368
G0 X55.935 Y25.438
;TYPE:WALL-OUTER
G1 F1500 E368.71687
G1 F2250 X55.935 Y7.438 E371.71028
G1 X57.005 Y7.438 E371.88822
G1 X57.005 Y25.438 E373.4897
G1 X55.935 Y25.438 E373.66764
G0 F6000 X55.935 Y25.238
G1 F1500 E367.16764
;MESH:NONMESH
G0 F600 X55.935 Y25.238 Z1.9
G0 F6000 X56.035 Y25.238
G0 X54.27 Y25.368
G0 X39.072 Y27.091
G0 X28.632 Y27.091
G0 X19.823 Y25.368
G0 X18.138 Y25.368
G0 X17.188 Y25.368
G0 X17.088 Y25.438
;TIME_ELAPSED:58.451784
;LAYER:7
;TYPE:WALL-OUTER
;MESH:404.stl
G1 F1500 E373.66764
G1 F2250 X17.088 Y7.438 E376.66105
G1 X18.158 Y7.438 E376.83899
G1 X18.158 Y25.438 E378.44047
G1 X17.088 Y25.438 E378.61841
G0 F6000 X17.088 Y25.238
G1 F1500 E372.11841
G0 F6000 X17.188 Y25.238
G0 X18.138 Y23.847
G0 X19.823 Y23.847
G0 X28.39 Y23.847
G0 X30.075 Y23.847
G0 X30.055 Y23.847
G1 F1500 E378.61841
G1 F2250 X30.054 Y8.438 E381.18094
G1 X30.054 Y7.438 E381.34724
G1 X31.054 Y7.438 E381.45475
G1 X37.619 Y7.438 E382.54651
G1 X37.619 Y25.438 E385.53993
G1 X30.055 Y25.438 E386.79782
G1 X30.055 Y23.847 E387.06241
G0 F6000 X30.055 Y23.647
G0 X30.155 Y23.648
G0 X32.045 Y23.448
;TYPE:SKIN
G1 F2250 X32.044 Y9.428 E389.39394
G1 X35.629 Y9.428 E389.99013
G1 X35.629 Y23.448 E392.32167
G1 X32.045 Y23.448 E392.91769
G0 F6000 X34.728 Y21.84
G1 F2250 X34.02 Y22.548 E393.0842
G0 F6000 X32.944 Y20.796
G1 F2250 X34.728 Y19.011 E393.50389
G0 F6000 X32.944 Y17.967
G1 F2250 X34.728 Y16.183 E393.92346
G0 F6000 X32.943 Y15.139
G1 F2250 X34.728 Y13.355 E394.34314
G0 F6000 X32.943 Y12.311
G1 F2250 X34.728 Y10.526 E394.76295
G1 F1500 E388.26295
G0 F6000 X37.599 Y25.368
G0 X39.284 Y25.368
G0 X54.27 Y25.368
G0 X55.955 Y25.368
G0 X55.935 Y25.438
;TYPE:WALL-OUTER
G1 F1500 E394.76295
G1 F2250 X55.935 Y7.438 E397.75636
G1 X57.005 Y7.438 E397.9343
G1 X57.005 Y25.438 E399.53578
G1 X55.935 Y25.438 E399.71372
G0 F6000 X55.935 Y25.238
G1 F1500 E393.21372
;MESH:NONMESH
G0 F600 X55.935 Y25.238 Z2.1
G0 F6000 X56.035 Y25.238
G0 X54.27 Y25.368
G0 X39.272 Y27.091
G0 X28.402 Y27.091
G0 X19.823 Y25.368
G0 X18.138 Y25.368
G0 X17.188 Y25.368
G0 X17.088 Y25.438
;TIME_ELAPSED:65.522462
;LAYER:8
;TYPE:WALL-OUTER
;MESH:404.stl
G1 F1500 E399.71372
G1 F2250 X17.088 Y7.438 E402.70713
G1 X18.158 Y7.438 E402.88507
G1 X18.158 Y25.438 E404.48655
G1 X17.088 Y25.438 E404.66449
G0 F6000 X17.088 Y25.238
G1 F1500 E398.16449
G0 F6000 X17.188 Y25.238
G0 X18.138 Y25.368
G0 X19.823 Y25.368
G0 X28.188 Y25.332
G0 X29.853 Y25.325
G0 X37.72 Y25.368
G0 X37.82 Y25.438
G1 F1500 E404.66449
G1 F2250 X29.853 Y25.438 E405.98941
G1 X29.832 Y19.772 E406.93167
G1 X29.832 Y7.438 E408.98283
G1 X37.81 Y7.438 E410.30957
G1 X37.82 Y16.438 E411.80628
G1 X37.82 Y25.438 E413.30299
G0 F6000 X37.62 Y25.438
G0 X37.62 Y25.338
G0 X35.83 Y23.448
;TYPE:SKIN
G1 F2250 X31.835 Y23.448 E413.96736
G1 X31.822 Y19.772 E414.57868
G1 X31.822 Y9.428 E416.2989
G1 X35.822 Y9.428 E416.9641
G1 X35.83 Y16.438 E418.12987
G1 X35.83 Y23.448 E419.29564
G0 F6000 X33.861 Y22.548
G1 F2250 X32.726 Y21.412 E419.56269
G0 F6000 X34.929 Y20.787
G1 F2250 X32.72 Y18.578 E420.08221
G0 F6000 X34.929 Y17.959
G1 F2250 X32.72 Y15.75 E420.60173
G0 F6000 X34.928 Y15.129
G1 F2250 X32.72 Y12.921 E421.12102
G0 F6000 X34.924 Y12.297
G1 F2250 X32.955 Y10.328 E421.5841
G1 F1500 E415.0841
G0 F6000 X37.8 Y16.438
G0 X39.484 Y16.436
G0 X54.27 Y16.438
G0 X55.955 Y16.438
G0 X56.035 Y25.368
G0 X55.935 Y25.438
;TYPE:WALL-OUTER
G1 F1500 E421.5841
G1 F2250 X55.935 Y7.438 E424.57751
G1 X57.005 Y7.438 E424.75545
G1 X57.005 Y25.438 E426.35693
G1 X55.935 Y25.438 E426.53487
G0 F6000 X55.935 Y25.238
G1 F1500 E420.03487
;MESH:NONMESH
G0 F600 X55.935 Y25.238 Z2.3
G0 F6000 X56.035 Y25.238
G0 X54.27 Y25.368
G0 X39.474 Y27.091
G0 X28.206 Y27.091
G0 X19.823 Y25.368
G0 X18.138 Y25.368
G0 X17.188 Y25.368
G0 X17.088 Y25.438
;TIME_ELAPSED:72.795429
;LAYER:9
;TYPE:WALL-OUTER
;MESH:404.stl
G1 F1500 E426.53487
G1 F2250 X17.088 Y7.438 E429.52828
G1 X18.158 Y7.438 E429.70622
G1 X18.158 Y25.438 E431.3077
G1 X17.088 Y25.438 E431.48564
G0 F6000 X17.088 Y25.238
G1 F1500 E424.98564
G0 F6000 X17.188 Y25.238
G0 X18.138 Y22.322
G0 X19.823 Y22.322
G0 X27.958 Y22.322
G0 X29.643 Y22.322
G0 X29.623 Y22.322
G1 F1500 E431.48564
G1 F2250 X29.622 Y8.438 E433.79456
G1 X29.622 Y7.438 E433.96086
G1 X30.622 Y7.438 E434.06837
G1 X38.012 Y7.438 E435.29734
G1 X38.013 Y24.438 E438.12445
G1 X38.013 Y25.438 E438.29075
G1 X37.013 Y25.438 E438.39826
G1 X29.623 Y25.438 E439.62722
G1 X29.623 Y22.322 E440.14542
G0 F6000 X29.623 Y22.122
G0 X29.723 Y22.123
G0 X31.613 Y22.322
;TYPE:SKIN
G1 F2250 X31.612 Y9.428 E442.2897
G1 X36.022 Y9.428 E443.02308
G1 X36.023 Y23.448 E445.35462
G1 X31.613 Y23.448 E446.08801
G1 X31.613 Y22.322 E446.27526
G0 F6000 X35.121 Y21.446
G1 F2250 X34.02 Y22.548 E446.53432
G0 F6000 X32.512 Y21.227
G1 F2250 X35.121 Y18.618 E447.14791
G0 F6000 X32.512 Y18.398
G1 F2250 X35.121 Y15.789 E447.76151
G0 F6000 X32.512 Y15.571
G1 F2250 X35.121 Y12.961 E448.37522
G0 F6000 X32.512 Y12.742
G1 F2250 X34.926 Y10.328 E448.94296
G1 F1500 E442.44296
G0 F6000 X38.012 Y25.369
G0 X39.677 Y25.368
G0 X54.27 Y25.369
G0 X55.955 Y25.369
G0 X55.935 Y25.438
;TYPE:WALL-OUTER
G1 F1500 E448.94296
G1 F2250 X55.935 Y7.438 E451.93637
G1 X57.005 Y7.438 E452.11431
G1 X57.005 Y25.438 E453.71579
